DigitalTwinThesis/DigitalTwin/files/joints.csv
J1, J2, J3, J4, J5, J6, ERROR, STEP_MM, STEP_DEG, MOVE_ID, TIME_S, X_TCP, Y_TCP, Z_TCP, SPEED_J1, SPEED_J2, SPEED_J3, SPEED_J4, SPEED_J5, SPEED_J6, ACCEL_J1, ACCEL_J2, ACCEL_J3, ACCEL_J4, ACCEL_J5, ACCEL_J6
-90.0000000, -90.0000000, -90.0000000, -90.0000000, 90.0000000, -0.0000000, 0.0000000, 0.0000000, 0.0000000, 1.0000000, 0.0000000, -163.9000000, -687.3000000, 648.5000000, 0.0000000, 0.0000000, 0.0000000, 0.0000000, 0.0000000, 0.0000000, 0.0000000, 0.0000000, 0.0000000, 0.0000000, 0.0000000, 0.0000000
-90.0000000, -90.0000000, -90.0000000, -90.0000000, 90.0000000, -0.0000000, 0.0000000, 0.0000000, 0.0000000, 2.0000000, 0.0000000, -163.9000000, -687.3000000, 648.5000000, 0.0000000, 0.0000000, 0.0000000, 0.0000000, 0.0000000, 0.0000000, 0.0000000, 0.0000000, 0.0000000, 0.0000000, 0.0000000, 0.0000000
-90.0000000, -90.0000000, -90.0000000, -90.0000000, 90.0000000, -0.0000000, 0.0000000, 0.0000000, 0.0000000, 3.0000000, 0.0000000, -163.9000000, -687.3000000, 648.5000000, 0.0000000, 0.0000000, 0.0000000, 0.0000000, 0.0000000, 0.0000000, 0.0000000, 0.0000000, 0.0000000, 0.0000000, 0.0000000, 0.0000000
-90.0000000, -90.0000000, -90.0000000, -90.0000000, 90.0000000, -0.0000000, 0.0000000, 0.0000000, 0.0000000, 4.0000000, 0.0000000, -163.9000000, -687.3000000, 648.5000000, 0.0000000, 0.0000000, 0.0000000, 0.0000000, 0.0000000, 0.0000000, 0.0000000, 0.0000000, 0.0000000, 0.0000000, 0.0000000, 0.0000000
-90.0000000, -90.0000000, -90.0000000, -90.0000000, 90.0000000, -0.0000000, 0.0000000, 0.0000000, 0.0000000, 5.0000000, 0.0000000, -163.9000000, -687.3000000, 648.5000000, 0.0000000, 0.0000000, 0.0000000, 0.0000000, 0.0000000, 0.0000000, 0.0000000, 0.0000000, 0.0000000, 0.0000000, 0.0000000, 0.0000000
-90.0000000, -90.0000000, -90.0000000, -90.0000000, 90.0000000, -0.0000000, 0.0000000, 0.0000000, 0.0000000, 6.0000000, 0.0000000, -163.9000000, -687.3000000, 648.5000000, 0.0000000, 0.0000000, 0.0000000, 0.0000000, 0.0000000, 0.0000000, 0.0000000, 0.0000000, 0.0000000, 0.0000000, 0.0000000, 0.0000000
-90.0000000, -90.0000000, -90.0000000, -90.0000000, 90.0000000, -0.0000000, 0.0000000, 0.0000000, 0.0000000, 7.0000000, 0.0000000, -163.9000000, -687.3000000, 648.5000000, 0.0000000, 0.0000000, 0.0000000, 0.0000000, 0.0000000, 0.0000000, 0.0000000, 0.0000000, 0.0000000, 0.0000000, 0.0000000, 0.0000000
-90.0000000, -90.0000000, -90.0000000, -90.0000000, 90.0000000, -0.0000000, 0.0000000, 0.0000000, 0.0000000, 8.0000000, 0.0000000, -163.9000000, -687.3000000, 648.5000000, 0.0000000, 0.0000000, 0.0000000, 0.0000000, 0.0000000, 0.0000000, 0.0000000, 0.0000000, 0.0000000, 0.0000000, 0.0000000, 0.0000000
-90.0000000, -90.0000000, -90.0000000, -90.0000000, 90.0000000, -0.0000000, 0.0000000, 0.0000000, 0.0000000, 9.0000000, 0.0000000, -163.9000000, -687.3000000, 648.5000000, 0.0000000, 0.0000000, 0.0000000, 0.0000000, 0.0000000, 0.0000000, 0.0000000, 0.0000000, 0.0000000, 0.0000000, 0.0000000, 0.0000000
-90.0000000, -90.0000000, -90.0000000, -90.0000000, 90.0000000, -0.0000000, 0.0000000, 0.0000000, 0.0000000, 10.0000000, 0.0000000, -163.9000000, -687.3000000, 648.5000000, 0.0000000, 0.0000000, 0.0000000, 0.0000000, 0.0000000, 0.0000000, 0.0000000, 0.0000000, 0.0000000, 0.0000000, 0.0000000, 0.0000000
-90.0000000, -90.0000000, -90.0000000, -90.0000000, 90.0000000, -0.0000000, 0.0000000, 0.0000000, 0.0000000, 11.0000000, 0.0000000, -163.9000000, -687.3000000, 648.5000000, 0.0000000, 0.0000000, 0.0000000, 0.0000000, 0.0000000, 0.0000000, 0.0000000, 0.0000000, 0.0000000, 0.0000000, 0.0000000, 0.0000000
-90.0000000, -90.0000000, -90.0000000, -90.0000000, 90.0000000, -0.0000000, 0.0000000, 0.0000000, 0.0000000, 12.0000000, 0.0000000, -163.9000000, -687.3000000, 648.5000000, 0.0000000, 0.0000000, 0.0000000, 0.0000000, 0.0000000, 0.0000000, 0.0000000, 0.0000000, 0.0000000, 0.0000000, 0.0000000, 0.0000000
-90.0000000, -90.0000000, -90.0000000, -90.0000000, 90.0000000, -0.0000000, 0.0000000, 0.0000000, 0.0000000, 13.0000000, 0.0000000, -163.9000000, -687.3000000, 648.5000000, 0.0000000, 0.0000000, 0.0000000, 0.0000000, 0.0000000, 0.0000000, 0.0000000, 0.0000000, 0.0000000, 0.0000000, 0.0000000, 0.0000000
-90.0000000, -90.0000000, -90.0000000, -90.0000000, 90.0000000, -0.0000000, 0.0000000, 0.0000000, 0.0000000, 14.0000000, 0.0000000, -163.9000000, -687.3000000, 648.5000000, 0.0000000, 0.0000000, 0.0000000, 0.0000000, 0.0000000, 0.0000000, 0.0000000, 0.0000000, 0.0000000, 0.0000000, 0.0000000, 0.0000000
-90.0000000, -90.0000000, -90.0000000, -90.0000000, 90.0000000, -0.0000000, 0.0000000, 0.0000000, 0.0000000, 15.0000000, 0.0000000, -163.9000000, -687.3000000, 648.5000000, 0.0000000, 0.0000000, 0.0000000, 0.0000000, 0.0000000, 0.0000000, 0.0000000, 0.0000000, 0.0000000, 0.0000000, 0.0000000, 0.0000000
-90.0000000, -90.0000000, -90.0000000, -90.0000000, 90.0000000, -0.0000000, 0.0000000, 0.0000000, 0.0000000, 16.0000000, 0.0000000, -163.9000000, -687.3000000, 648.5000000, 0.0000000, 0.0000000, 0.0000000, 0.0000000, 0.0000000, 0.0000000, 0.0000000, 0.0000000, 0.0000000, 0.0000000, 0.0000000, 0.0000000
-90.0000000, -90.0000000, -90.0000000, -90.0000000, 90.0000000, -0.0000000, 0.0000000, 0.0000000, 0.0000000, 17.0000000, 0.0000000, -163.9000000, -687.3000000, 648.5000000, 0.0000000, 0.0000000, 0.0000000, 0.0000000, 0.0000000, 0.0000000, 0.0000000, 0.0000000, 0.0000000, 0.0000000, 0.0000000, 0.0000000
-90.0000000, -90.0000000, -90.0000000, -90.0000000, 90.0000000, -0.0000000, 0.0000000, 0.0000000, 0.0000000, 18.0000000, 0.0000000, -163.9000000, -687.3000000, 648.5000000, 0.0000000, 0.0000000, 0.0000000, 0.0000000, 0.0000000, 0.0000000, 0.0000000, 0.0000000, 0.0000000, 0.0000000, 0.0000000, 0.0000000
-90.0000000, -90.0000000, -90.0000000, -90.0000000, 90.0000000, -0.0000000, 0.0000000, 0.0000000, 0.0000000, 19.0000000, 0.0000000, -163.9000000, -687.3000000, 648.5000000, 0.0000000, 0.0000000, 0.0000000, 0.0000000, 0.0000000, 0.0000000, 0.0000000, 0.0000000, 0.0000000, 0.0000000, 0.0000000, 0.0000000
-90.0000000, -90.0000000, -90.0000000, -90.0000000, 90.0000000, -0.0000000, 0.0000000, 0.0000000, 0.0000000, 20.0000000, 0.0000000, -163.9000000, -687.3000000, 648.5000000, 0.0000000, 0.0000000, 0.0000000, 0.0000000, 0.0000000, 0.0000000, 0.0000000, 0.0000000, 0.0000000, 0.0000000, 0.0000000, 0.0000000
-90.0000000, -90.0000000, -90.0000000, -90.0000000, 90.0000000, -0.0000000, 0.0000000, 0.0000000, 0.0000000, 21.0000000, 0.0000000, -163.9000000, -687.3000000, 648.5000000, 0.0000000, 0.0000000, 0.0000000, 0.0000000, 0.0000000, 0.0000000, 0.0000000, 0.0000000, 0.0000000, 0.0000000, 0.0000000, 0.0000000
-89.9999999, -89.7567083, -90.1430013, -90.1002904, 90.0000000, 0.0000001, 0.0000000, 2.7862597, 0.2432917, 22.0000000, 0.1000000, -163.8999984, -684.6974605, 649.4950031, 0.0000013, 2.4329171, -1.4300131, -1.0029040, 0.0000000, 0.0000013, 0.0000135, 24.3291708, -14.3001310, -10.0290397, 0.0000000, 0.0000135
-89.9999998, -89.6091217, -90.2297493, -90.1611290, 90.0000000, 0.0000002, 0.0000000, 1.6890762, 0.3908783, 22.0000000, 0.0768340, -163.8999974, -683.1178638, 650.0932112, 0.0000011, 1.9208501, -1.1290318, -0.7918183, 0.0000000, 0.0000011, -0.0000037, -6.6645881, 3.9172927, 2.7472954, 0.0000000, -0.0000037
-89.9999998, -89.6082884, -90.2302391, -90.1614725, 90.0000000, 0.0000002, 0.0000000, 0.0095346, 0.0008333, 22.0000000, 0.0081649, -163.8999974, -683.1089432, 650.0965773, 0.0000001, 0.1020610, -0.0599891, -0.0420719, 0.0000000, 0.0000001, -0.0001236, -222.7576640, 130.9318684, 91.8257956, 0.0000000, -0.0001236
-89.9999996, -89.3582884, -90.3752475, -90.2664641, 90.0000000, 0.0000004, 0.0000000, 2.8661142, 0.2500000, 23.0000000, 0.1000000, -163.8999957, -680.4317348, 651.1198886, 0.0000014, 2.5000000, -1.4500839, -1.0499161, 0.0000000, 0.0000014, 0.0000135, 23.9793903, -13.9009480, -10.0784423, 0.0000000, 0.0000135
-89.9999994, -88.8902351, -90.6467342, -90.4630308, 90.0000000, 0.0000006, 0.0000000, 5.3593152, 0.7180533, 23.0000000, 0.1000000, -163.8999927, -675.4146604, 653.0043577, 0.0000026, 4.6805330, -2.7148663, -1.9656668, 0.0000000, 0.0000026, 0.0000123, 21.8053304, -12.6478235, -9.1575069, 0.0000000, 0.0000123
-89.9999993, -88.8281984, -90.6827175, -90.4890841, 90.0000000, 0.0000007, 0.0000000, 0.7096841, 0.7800900, 23.0000000, 0.0498143, -163.8999923, -674.7492350, 653.2510569, 0.0000007, 1.2453582, -0.7223496, -0.5230087, 0.0000000, 0.0000007, -0.0000388, -68.9595716, 39.9988661, 28.9607055, 0.0000000, -0.0000388
-89.9999993, -88.8273444, -90.6832063, -90.4894494, 90.0000000, 0.0000007, 0.0000000, 0.0097923, 0.0008540, 23.0000000, 0.0082657, -163.8999923, -674.7400732, 653.2545140, 0.0000001, 0.1033209, -0.0591295, -0.0441914, 0.0000000, 0.0000001, -0.0000776, -138.1663278, 80.2379026, 57.9284252, 0.0000000, -0.0000776
-89.9999992, -88.5773444, -90.8243420, -90.5983136, 90.0000000, 0.0000008, 0.0000000, 2.8723222, 0.2500000, 24.0000000, 0.1000000, -163.8999906, -672.0570440, 654.2799842, 0.0000014, 2.5000000, -1.4113578, -1.0886422, 0.0000000, 0.0000014, 0.0000139, 23.9667912, -13.5222827, -10.4445085, 0.0000000, 0.0000139
-89.9999989, -88.1103194, -91.0879978, -90.8016828, 90.0000000, 0.0000011, 0.0000000, 5.3591012, 0.7170250, 24.0000000, 0.1000000, -163.8999875, -667.0401650, 656.1643651, 0.0000027, 4.6702495, -2.6365572, -2.0336924, 0.0000000, 0.0000027, 0.0000125, 21.7024954, -12.2519942, -9.4505012, 0.0000000, 0.0000125
-89.9999989, -88.0489624, -91.1226364, -90.8284011, 90.0000000, 0.0000011, 0.0000000, 0.7034252, 0.7783820, 24.0000000, 0.0495407, -163.8999871, -666.3806129, 656.4089011, 0.0000007, 1.2385173, -0.6991964, -0.5393209, 0.0000000, 0.0000007, -0.0000400, -69.2709809, 39.1064549, 30.1645261, 0.0000000, -0.0000400
-89.9999989, -88.0480843, -91.1231253, -90.8287903, 90.0000000, 0.0000011, 0.0000000, 0.0100902, 0.0008781, 24.0000000, 0.0083813, -163.8999871, -666.3711724, 656.4124634, 0.0000001, 0.1047659, -0.0583333, -0.0464327, 0.0000000, 0.0000001, -0.0000781, -135.2719583, 76.4636874, 58.8082709, 0.0000000, -0.0000781
-89.9999987, -87.7980843, -91.2603864, -90.9415292, 90.0000000, 0.0000013, 0.0000000, 2.8787169, 0.2500000, 25.0000000, 0.1000000, -163.8999855, -663.6821480, 657.4401593, 0.0000015, 2.5000000, -1.3726109, -1.1273891, 0.0000000, 0.0000015, 0.0000142, 23.9523407, -13.1427759, -10.8095648, 0.0000000, 0.0000142
-89.9999985, -87.3321198, -91.5162216, -91.1516586, 90.0000000, 0.0000015, 0.0000000, 5.3588294, 0.7159645, 25.0000000, 0.1000000, -163.8999824, -658.6655181, 659.3244301, 0.0000028, 4.6596451, -2.5583518, -2.1012933, 0.0000000, 0.0000028, 0.0000128, 21.5964507, -11.8574092, -9.7390415, 0.0000000, 0.0000128
-89.9999984, -87.2714585, -91.5495274, -91.1790141, 90.0000000, 0.0000016, 0.0000000, 0.6969972, 0.7766258, 25.0000000, 0.0492590, -163.8999820, -658.0119974, 659.5667438, 0.0000007, 1.2314758, -0.6761348, -0.5553410, 0.0000000, 0.0000007, -0.0000413, -69.5947349, 38.2105958, 31.3841391, 0.0000000, -0.0000413
-89.9999984, -87.2705531, -91.5500175, -91.1794294, 90.0000000, 0.0000016, 0.0000000, 0.0104281, 0.0009054, 25.0000000, 0.0085108, -163.8999820, -658.0022408, 659.5704253, 0.0000001, 0.1063856, -0.0575857, -0.0487999, 0.0000000, 0.0000001, -0.0000784, -132.1948454, 72.6777315, 59.5171140, 0.0000000, -0.0000784
-89.9999983, -87.0205531, -91.6834009, -91.2960460, 90.0000000, 0.0000017, 0.0000000, 2.8853253, 0.2500000, 26.0000000, 0.1000000, -163.8999803, -655.3070217, 660.6004235, 0.0000015, 2.5000000, -1.3338340, -1.1661660, 0.0000000, 0.0000015, 0.0000146, 23.9361440, -12.7624825, -11.1736615, 0.0000000, 0.0000146
-89.9999980, -86.5556854, -91.9314234, -91.5128912, 90.0000000, 0.0000020, 0.0000000, 5.3584960, 0.7148677, 26.0000000, 0.1000000, -163.8999772, -650.2906978, 662.4845610, 0.0000028, 4.6486768, -2.4802252, -2.1684516, 0.0000000, 0.0000028, 0.0000131, 21.4867680, -11.4639124, -10.0228556, 0.0000000, 0.0000131
-89.9999980, -86.4957381, -91.9634073, -91.5408546, 90.0000000, 0.0000020, 0.0000000, 0.6903771, 0.7748149, 26.0000000, 0.0489683, -163.8999769, -649.6433886, 662.7245849, 0.0000007, 1.2242066, -0.6531553, -0.5710512, 0.0000000, 0.0000007, -0.0000427, -69.9324424, 37.3113069, 32.6211355, 0.0000000, -0.0000427
-89.9999980, -86.4948021, -91.9638994, -91.5412985, 90.0000000, 0.0000020, 0.0000000, 0.0108059, 0.0009360, 26.0000000, 0.0086535, -163.8999768, -649.6332786, 662.7283998, 0.0000001, 0.1081691, -0.0568726, -0.0512965, 0.0000000, 0.0000001, -0.0000786, -128.9690779, 68.9063205, 60.0627574, 0.0000000, -0.0000786
-89.9999978, -86.2448021, -92.0934011, -91.6617968, 90.0000000, 0.0000022, 0.0000000, 2.8921749, 0.2500000, 27.0000000, 0.1000000, -163.8999752, -646.9316394, 663.7607864, 0.0000016, 2.5000000, -1.2950173, -1.2049827, 0.0000000, 0.0000016, 0.0000150, 23.9183090, -12.3814475, -11.5368616, 0.0000000, 0.0000150
-89.9999975, -85.7810719, -92.3336166, -91.8853115, 90.0000000, 0.0000025, 0.0000000, 5.3580965, 0.7137302, 27.0000000, 0.1000000, -163.8999721, -641.9156828, 665.6447656, 0.0000029, 4.6373019, -2.4021545, -2.2351474, 0.0000000, 0.0000029, 0.0000134, 21.3730195, -11.0713722, -10.3016473, 0.0000000, 0.0000134
-89.9999975, -85.7218592, -92.3642892, -91.9138516, 90.0000000, 0.0000025, 0.0000000, 0.6835422, 0.7729429, 27.0000000, 0.0486673, -163.8999717, -641.2747865, 665.8824246, 0.0000008, 1.2166826, -0.6302500, -0.5864326, 0.0000000, 0.0000008, -0.0000441, -70.2857754, 36.4085187, 33.8772568, 0.0000000, -0.0000441
-89.9999975, -85.7208894, -92.3647840, -91.9143266, 90.0000000, 0.0000025, 0.0000000, 0.0112234, 0.0009699, 27.0000000, 0.0088084, -163.8999717, -641.2642858, 665.8863869, 0.0000001, 0.1101055, -0.0561801, -0.0539254, 0.0000000, 0.0000001, -0.0000788, -125.6269368, 65.1727213, 60.4542155, 0.0000000, -0.0000788
-89.9999973, -85.4708894, -92.4903991, -92.0387115, 90.0000000, 0.0000027, 0.0000000, 2.8992933, 0.2500000, 28.0000000, 0.1000000, -163.8999700, -638.5559756, 666.9212577, 0.0000016, 2.5000000, -1.2561506, -1.2438494, 0.0000000, 0.0000016, 0.0000155, 23.8989452, -11.9997050, -11.8992402, 0.0000000, 0.0000155
-89.9999970, -85.0083416, -92.7228110, -92.2688474, 90.0000000, 0.0000030, 0.0000000, 5.3576256, 0.7125478, 28.0000000, 0.1000000, -163.8999670, -633.5404525, 668.8050517, 0.0000030, 4.6254777, -2.3241187, -2.3013590, 0.0000000, 0.0000030, 0.0000137, 21.2547773, -10.6796807, -10.5750966, 0.0000000, 0.0000137
-89.9999970, -84.9498862, -92.7521825, -92.2979313, 90.0000000, 0.0000030, 0.0000000, 0.6764704, 0.7710031, 28.0000000, 0.0483551, -163.8999666, -632.9061908, 669.0402627, 0.0000008, 1.2088773, -0.6074128, -0.6014645, 0.0000000, 0.0000008, -0.0000457, -70.6564769, 35.5020709, 35.1544060, 0.0000000, -0.0000457
-89.9999970, -84.9488794, -92.7526805, -92.2984401, 90.0000000, 0.0000030, 0.0000000, 0.0116804, 0.0010068, 28.0000000, 0.0089747, -163.8999666, -632.8952626, 669.0443864, 0.0000001, 0.1121838, -0.0554952, -0.0566886, 0.0000000, 0.0000001, -0.0000788, -122.1982691, 61.4970085, 60.7012606, 0.0000000, -0.0000788
-89.9999968, -84.6988794, -92.8744028, -92.4267178, 90.0000000, 0.0000032, 0.0000000, 2.9067082, 0.2500000, 29.0000000, 0.1000000, -163.8999649, -630.1800043, 670.0818474, 0.0000017, 2.5000000, -1.2172230, -1.2827770, 0.0000000, 0.0000017, 0.0000159, 23.8781618, -11.6172772, -12.2608846, 0.0000000, 0.0000159
-89.9999965, -84.2375633, -93.0990126, -92.6634241, 90.0000000, 0.0000035, 0.0000000, 5.3570769, 0.7113161, 29.0000000, 0.1000000, -163.8999618, -625.1649866, 671.9654267, 0.0000031, 4.6131613, -2.2460984, -2.3670630, 0.0000000, 0.0000031, 0.0000141, 21.1316134, -10.2887540, -10.8428594, 0.0000000, 0.0000141
-89.9999965, -84.1798899, -93.1270932, -92.6930169, 90.0000000, 0.0000035, 0.0000000, 0.6691402, 0.7689895, 29.0000000, 0.0480306, -163.8999614, -624.5376016, 672.1980995, 0.0000008, 1.2007641, -0.5846391, -0.6161251, 0.0000000, 0.0000008, -0.0000473, -71.0463691, 34.5917088, 36.4546603, 0.0000000, -0.0000473
-89.9999965, -84.1788430, -93.1275947, -92.6935622, 90.0000000, 0.0000035, 0.0000000, 0.0121768, 0.0010469, 29.0000000, 0.0091515, -163.8999614, -624.5262089, 672.2023984, 0.0000001, 0.1143933, -0.0548055, -0.0595878, 0.0000000, 0.0000001, -0.0000788, -118.7100783, 57.8960557, 60.8140226, 0.0000000, -0.0000788
-89.9999963, -83.9288430, -93.2454170, -92.8257399, 90.0000000, 0.0000037, 0.0000000, 2.9144478, 0.2500000, 30.0000000, 0.1000000, -163.8999597, -621.8036993, 673.2425653, 0.0000017, 2.5000000, -1.1782228, -1.3217772, 0.0000000, 0.0000017, 0.0000164, 23.8560672, -11.2341735, -12.6218937, 0.0000000, 0.0000164
-89.9999960, -83.4688121, -93.4622246, -93.0689633, 90.0000000, 0.0000040, 0.0000000, 5.3564434, 0.7100310, 30.0000000, 0.1000000, -163.8999567, -616.7892656, 675.1258979, 0.0000032, 4.6003099, -2.1680761, -2.4322339, 0.0000000, 0.0000032, 0.0000144, 21.0030994, -9.8985324, -11.1045669, 0.0000000, 0.0000144
-89.9999959, -83.4119473, -93.4890244, -93.0990284, 90.0000000, 0.0000041, 0.0000000, 0.6615308, 0.7668958, 30.0000000, 0.0476927, -163.8999563, -616.1690189, 675.3559348, 0.0000008, 1.1923169, -0.5619260, -0.6303909, 0.0000000, 0.0000008, -0.0000489, -71.4573637, 33.6770788, 37.7802849, 0.0000000, -0.0000489
-89.9999959, -83.4108573, -93.4895296, -93.0996131, 90.0000000, 0.0000041, 0.0000000, 0.0127125, 0.0010899, 30.0000000, 0.0093379, -163.8999563, -616.1571250, 675.3604228, 0.0000001, 0.1167233, -0.0540990, -0.0626242, 0.0000000, 0.0000001, -0.0000788, -115.1863078, 54.3836532, 60.8026546, 0.0000000, -0.0000788
-89.9999958, -83.1608573, -93.6034434, -93.2356993, 90.0000000, 0.0000042, 0.0000000, 2.9225404, 0.2500000, 31.0000000, 0.1000000, -163.8999546, -613.4270341, 676.4034216, 0.0000018, 2.5000000, -1.1391380, -1.3608620, 0.0000000, 0.0000018, 0.0000168, 23.8327674, -10.8503896, -12.9823778, 0.0000000, 0.0000168
-89.9999954, -82.7021693, -93.8124470, -93.4853838, 90.0000000, 0.0000046, 0.0000000, 5.3557170, 0.7086881, 31.0000000, 0.1000000, -163.8999515, -608.4132707, 678.2864724, 0.0000032, 4.5868806, -2.0900360, -2.4968446, 0.0000000, 0.0000032, 0.0000147, 20.8688064, -9.5089802, -11.3598262, 0.0000000, 0.0000147
-89.9999954, -82.6461414, -93.8379763, -93.5158822, 90.0000000, 0.0000046, 0.0000000, 0.6536222, 0.7647159, 31.0000000, 0.0473404, -163.8999512, -607.8004425, 678.5137688, 0.0000008, 1.1835099, -0.5392724, -0.6442375, 0.0000000, 0.0000008, -0.0000507, -71.8914730, 32.7577235, 39.1337494, 0.0000000, -0.0000507
-89.9999954, -82.6450054, -93.8384851, -93.5165095, 90.0000000, 0.0000046, 0.0000000, 0.0132873, 0.0011360, 31.0000000, 0.0095331, -163.8999511, -607.7880108, 678.5184598, 0.0000001, 0.1191634, -0.0533648, -0.0657986, 0.0000000, 0.0000001, -0.0000787, -111.6477839, 50.9707191, 60.6770648, 0.0000000, -0.0000787
-89.9999952, -82.3950054, -93.9484806, -93.6565139, 90.0000000, 0.0000048, 0.0000000, 2.9310148, 0.2500000, 32.0000000, 0.1000000, -163.8999494, -605.0499820, 679.5644265, 0.0000018, 2.5000000, -1.0999556, -1.4000444, 0.0000000, 0.0000018, 0.0000173, 23.8083659, -10.4659072, -13.3424586, 0.0000000, 0.0000173
-89.9999949, -81.9377224, -94.1496770, -93.9126006, 90.0000000, 0.0000051, 0.0000000, 5.3548883, 0.7072831, 32.0000000, 0.1000000, -163.8999464, -600.0369835, 681.4471570, 0.0000033, 4.5728305, -2.0119642, -2.5608663, 0.0000000, 0.0000033, 0.0000151, 20.7283050, -9.1200859, -11.6082192, 0.0000000, 0.0000151
-89.9999948, -81.8825615, -94.1739468, -93.9434916, 90.0000000, 0.0000052, 0.0000000, 0.6453950, 0.7624439, 32.0000000, 0.0469727, -163.8999460, -599.4318724, 681.6716015, 0.0000009, 1.1743174, -0.5166788, -0.6576386, 0.0000000, 0.0000009, -0.0000526, -72.3508221, 31.8330760, 40.5177461, 0.0000000, -0.0000526
-89.9999948, -81.8813766, -94.1744589, -93.9441645, 90.0000000, 0.0000052, 0.0000000, 0.0139012, 0.0011849, 32.0000000, 0.0097363, -163.8999460, -599.4188663, 681.6765092, 0.0000001, 0.1217038, -0.0525925, -0.0691113, 0.0000000, 0.0000001, -0.0000785, -108.1122832, 47.6655697, 60.4467134, 0.0000000, -0.0000785
-89.9999947, -81.6313766, -94.2805251, -94.0880983, 90.0000000, 0.0000053, 0.0000000, 2.9399001, 0.2500000, 33.0000000, 0.1000000, -163.8999443, -596.6725158, 682.7255904, 0.0000019, 2.5000000, -1.0606619, -1.4393381, 0.0000000, 0.0000019, 0.0000179, 23.7829625, -10.0806938, -13.7022687, 0.0000000, 0.0000179
-89.9999943, -81.1755649, -94.4739099, -94.3505252, 90.0000000, 0.0000057, 0.0000000, 5.3539469, 0.7058117, 33.0000000, 0.1000000, -163.8999412, -591.6603866, 684.6079582, 0.0000034, 4.5581165, -1.9338481, -2.6242684, 0.0000000, 0.0000034, 0.0000154, 20.5811651, -8.7318628, -11.8493023, 0.0000000, 0.0000154
-89.9999943, -81.1213026, -94.4969315, -94.3817659, 90.0000000, 0.0000057, 0.0000000, 0.6368307, 0.7600740, 33.0000000, 0.0465886, -163.8999409, -591.0633085, 684.8294331, 0.0000009, 1.1647142, -0.4941472, -0.6705670, 0.0000000, 0.0000009, -0.0000547, -72.8376638, 30.9024530, 41.9352108, 0.0000000, -0.0000547
-89.9999943, -81.1200658, -94.4974465, -94.3824877, 90.0000000, 0.0000057, 0.0000000, 0.0145539, 0.0012367, 33.0000000, 0.0099468, -163.8999409, -591.0496917, 684.8345712, 0.0000001, 0.1243346, -0.0517722, -0.0725624, 0.0000000, 0.0000001, -0.0000784, -104.5946901, 44.4742218, 60.1204683, 0.0000000, -0.0000784
-89.9999941, -80.8700658, -94.5995707, -94.5303635, 90.0000000, 0.0000059, 0.0000000, 2.9492257, 0.2500000, 34.0000000, 0.1000000, -163.8999391, -588.2946079, 685.8869237, 0.0000019, 2.5000000, -1.0212424, -1.4787576, 0.0000000, 0.0000019, 0.0000184, 23.7566535, -9.6947018, -14.0619517, 0.0000000, 0.0000184
-89.9999937, -80.4157963, -94.7851384, -94.7990653, 90.0000000, 0.0000063, 0.0000000, 5.3528812, 0.7042696, 34.0000000, 0.1000000, -163.8999361, -583.2834634, 687.7688824, 0.0000035, 4.5426956, -1.8556773, -2.6870182, 0.0000000, 0.0000035, 0.0000158, 20.4269557, -8.3443493, -12.0826064, 0.0000000, 0.0000158
-89.9999937, -80.3624653, -94.8069240, -94.8306107, 90.0000000, 0.0000063, 0.0000000, 0.6279115, 0.7576006, 34.0000000, 0.0461870, -163.8999357, -582.6947508, 687.9872635, 0.0000009, 1.1546753, -0.4716813, -0.6829939, 0.0000000, 0.0000009, -0.0000568, -73.3543950, 29.9650474, 43.3893476, 0.0000000, -0.0000568
-89.9999937, -80.3611740, -94.8074413, -94.8313847, 90.0000000, 0.0000063, 0.0000000, 0.0152454, 0.0012913, 34.0000000, 0.0101637, -163.8999357, -582.6804870, 687.9926458, 0.0000001, 0.1270469, -0.0508949, -0.0761519, 0.0000000, 0.0000001, -0.0000782, -101.1072144, 41.4007049, 59.7065095, 0.0000000, -0.0000782
-89.9999935, -80.1111740, -94.9056095, -94.9832165, 90.0000000, 0.0000065, 0.0000000, 2.9590218, 0.2500000, 35.0000000, 0.1000000, -163.8999340, -579.9162305, 689.0484372, 0.0000020, 2.5000000, -0.9816818, -1.5183182, 0.0000000, 0.0000020, 0.0000190, 23.7295313, -9.3078691, -14.4216622, 0.0000000, 0.0000190
-89.9999931, -79.6585216, -95.0833537, -95.2581247, 90.0000000, 0.0000069, 0.0000000, 5.3516781, 0.7026524, 35.0000000, 0.1000000, -163.8999309, -574.9061982, 690.9299353, 0.0000036, 4.5265245, -1.7774428, -2.7490817, 0.0000000, 0.0000036, 0.0000162, 20.2652449, -7.9576093, -12.3076357, 0.0000000, 0.0000162
-89.9999931, -79.6061560, -95.1039163, -95.2899277, 90.0000000, 0.0000069, 0.0000000, 0.6186208, 0.7550180, 35.0000000, 0.0457670, -163.8999306, -574.3261991, 691.1450929, 0.0000009, 1.1441762, -0.4492868, -0.6948894, 0.0000000, 0.0000009, -0.0000591, -73.9035752, 29.0199194, 44.8836558, 0.0000000, -0.0000591
-89.9999931, -79.6048075, -95.1044351, -95.2907574, 90.0000000, 0.0000069, 0.0000000, 0.0159755, 0.0013485, 35.0000000, 0.0103865, -163.8999306, -574.3112523, 691.1507329, 0.0000001, 0.1298316, -0.0499522, -0.0798794, 0.0000000, 0.0000001, -0.0000779, -97.6596436, 38.4473674, 59.2122762, 0.0000000, -0.0000779
-89.9999929, -79.3548075, -95.1986315, -95.4465610, 90.0000000, 0.0000071, 0.0000000, 2.9693186, 0.2500000, 36.0000000, 0.1000000, -163.8999289, -571.5373550, 692.2101419, 0.0000021, 2.5000000, -0.9419640, -1.5580360, 0.0000000, 0.0000021, 0.0000196, 23.7016841, -8.9201184, -14.7815657, 0.0000000, 0.0000196
-89.9999925, -78.9038515, -95.3685452, -95.7276033, 90.0000000, 0.0000075, 0.0000000, 5.3503229, 0.7009560, 36.0000000, 0.1000000, -163.8999258, -566.5285761, 694.0911227, 0.0000037, 4.5095600, -1.6991372, -2.8104228, 0.0000000, 0.0000037, 0.0000166, 20.0956001, -7.5717326, -12.5238675, 0.0000000, 0.0000166
-89.9999925, -78.8524865, -95.3878988, -95.7596147, 90.0000000, 0.0000075, 0.0000000, 0.6089429, 0.7523210, 36.0000000, 0.0453277, -163.8999254, -565.9576534, 694.3029214, 0.0000009, 1.1331925, -0.4269706, -0.7062219, 0.0000000, 0.0000009, -0.0000616, -74.4879481, 28.0659858, 46.4219623, 0.0000000, -0.0000616
-89.9999925, -78.8510782, -95.3884182, -95.7605036, 90.0000000, 0.0000075, 0.0000000, 0.0167441, 0.0014083, 36.0000000, 0.0106144, -163.8999254, -565.9419875, 694.3088327, 0.0000001, 0.1326804, -0.0489359, -0.0837445, 0.0000000, 0.0000001, -0.0000777, -94.2596101, 35.6151650, 58.6444451, 0.0000000, -0.0000777
-89.9999922, -78.6010782, -95.4786254, -95.9202964, 90.0000000, 0.0000078, 0.0000000, 2.9801473, 0.2500000, 37.0000000, 0.1000000, -163.8999237, -563.1579526, 695.3720486, 0.0000021, 2.5000000, -0.9020716, -1.5979284, 0.0000000, 0.0000021, 0.0000202, 23.6731961, -8.5313573, -15.1418388, 0.0000000, 0.0000202
-89.9999919, -78.1519023, -95.6407009, -96.2073968, 90.0000000, 0.0000081, 0.0000000, 5.3487993, 0.6991759, 37.0000000, 0.1000000, -163.8999206, -558.1505834, 697.2524496, 0.0000038, 4.4917587, -1.6207553, -2.8710035, 0.0000000, 0.0000038, 0.0000170, 19.9175872, -7.1868362, -12.7307510, 0.0000000, 0.0000170
-89.9999918, -78.1015738, -95.6588609, -96.2395653, 90.0000000, 0.0000082, 0.0000000, 0.5988631, 0.7495044, 37.0000000, 0.0448680, -163.8999203, -557.5891136, 697.4607491, 0.0000010, 1.1217006, -0.4047417, -0.7169589, 0.0000000, 0.0000010, -0.0000642, -75.1104662, 27.1020084, 48.0084578, 0.0000000, -0.0000642
-89.9999918, -78.1001031, -95.6593798, -96.2405171, 90.0000000, 0.0000082, 0.0000000, 0.0175510, 0.0014707, 37.0000000, 0.0108468, -163.8999203, -557.5726926, 697.4669453, 0.0000001, 0.1355852, -0.0478388, -0.0877464, 0.0000000, 0.0000001, -0.0000775, -90.9128580, 32.9039242, 58.0089338, 0.0000000, -0.0000775
-89.9999916, -77.8501031, -95.7455784, -96.4043184, 90.0000000, 0.0000084, 0.0000000, 2.9915395, 0.2500000, 38.0000000, 0.1000000, -163.8999186, -554.7779937, 698.5341688, 0.0000022, 2.5000000, -0.8619866, -1.6380134, 0.0000000, 0.0000022, 0.0000209, 23.6441476, -8.1414783, -15.5026693, 0.0000000, 0.0000209
-89.9999912, -77.4027954, -95.8998078, -96.6973968, 90.0000000, 0.0000088, 0.0000000, 5.3470895, 0.6973077, 38.0000000, 0.1000000, -163.8999155, -549.7722072, 700.4139209, 0.0000040, 4.4730771, -1.5422931, -2.9307841, 0.0000000, 0.0000040, 0.0000174, 19.7307715, -6.8030644, -12.9277071, 0.0000000, 0.0000174
-89.9999912, -77.3535401, -95.9167907, -96.7296692, 90.0000000, 0.0000088, 0.0000000, 0.5883680, 0.7465630, 38.0000000, 0.0443871, -163.8999152, -549.2205794, 700.6185760, 0.0000010, 1.1096768, -0.3826106, -0.7270662, 0.0000000, 0.0000010, -0.0000670, -75.7743194, 26.1265798, 49.6477396, 0.0000000, -0.0000670
-89.9999911, -77.3520047, -95.9173078, -96.7306875, 90.0000000, 0.0000089, 0.0000000, 0.0183961, 0.0015354, 38.0000000, 0.0110831, -163.8999152, -549.2033678, 700.6250706, 0.0000001, 0.1385385, -0.0466539, -0.0918846, 0.0000000, 0.0000001, -0.0000772, -87.6234996, 30.3125787, 57.3109208, 0.0000000, -0.0000772
-89.9999909, -77.1020047, -95.9994768, -96.8985186, 90.0000000, 0.0000091, 0.0000000, 3.0035273, 0.2500000, 39.0000000, 0.1000000, -163.8999134, -546.3974482, 701.6965141, 0.0000023, 2.5000000, -0.8216897, -1.6783103, 0.0000000, 0.0000023, 0.0000216, 23.6146149, -7.7503583, -15.8642566, 0.0000000, 0.0000216
-89.9999905, -76.6566575, -96.1458516, -97.1974909, 90.0000000, 0.0000095, 0.0000000, 5.3451733, 0.6953472, 39.0000000, 0.1000000, -163.8999104, -541.3934362, 703.5755410, 0.0000041, 4.4534717, -1.4637487, -2.9897229, 0.0000000, 0.0000041, 0.0000179, 19.5347168, -6.4205903, -13.1141265, 0.0000000, 0.0000179
-89.9999905, -76.6085125, -96.1616757, -97.2298118, 90.0000000, 0.0000095, 0.0000000, 0.5774455, 0.7434922, 39.0000000, 0.0438839, -163.8999100, -540.8520510, 703.7764024, 0.0000010, 1.0970983, -0.3605898, -0.7365086, 0.0000000, 0.0000010, -0.0000700, -76.4829675, 25.1381068, 51.3448606, 0.0000000, -0.0000700
-89.9999905, -76.6069100, -96.1621895, -97.2309005, 90.0000000, 0.0000095, 0.0000000, 0.0192793, 0.0016025, 39.0000000, 0.0113226, -163.8999100, -540.8340131, 703.7832087, 0.0000001, 0.1415329, -0.0453747, -0.0961583, 0.0000000, 0.0000001, -0.0000770, -84.3942549, 27.8393757, 56.5548792, 0.0000000, -0.0000770
-89.9999902, -76.3569100, -96.2403055, -97.4027845, 90.0000000, 0.0000098, 0.0000000, 3.0161437, 0.2500000, 40.0000000, 0.1000000, -163.8999083, -538.0162854, 704.8590960, 0.0000024, 2.5000000, -0.7811605, -1.7188395, 0.0000000, 0.0000024, 0.0000224, 23.5846706, -7.3578589, -16.2268117, 0.0000000, 0.0000224
-89.9999898, -75.9136201, -96.3788178, -97.7075621, 90.0000000, 0.0000102, 0.0000000, 5.3430289, 0.6932899, 40.0000000, 0.1000000, -163.8999052, -533.0142601, 706.7373137, 0.0000042, 4.4328986, -1.3851222, -3.0477764, 0.0000000, 0.0000042, 0.0000183, 19.3289858, -6.0396165, -13.2893694, 0.0000000, 0.0000183
-89.9999898, -75.8666229, -96.3935027, -97.7398744, 90.0000000, 0.0000102, 0.0000000, 0.5660848, 0.7402871, 40.0000000, 0.0433577, -163.8999049, -532.4835280, 706.9342283, 0.0000010, 1.0839424, -0.3386932, -0.7452492, 0.0000000, 0.0000010, -0.0000732, -77.2401781, 24.1347919, 53.1053862, 0.0000000, -0.0000732
-89.9999895, -75.6263671, -96.4666208, -97.9070122, 90.0000000, 0.0000105, 0.0000000, 2.9019947, 0.2402558, 40.0000000, 0.1000000, -163.8999032, -529.7664435, 707.9535541, 0.0000023, 2.4025583, -0.7311805, -1.6713779, 0.0000000, 0.0000023, 0.0000129, 13.1861594, -3.9248725, -9.2612869, 0.0000000, 0.0000129
-89.9999894, -75.4964793, -96.5061500, -97.9973706, 90.0000000, 0.0000106, 0.0000000, 1.5681047, 0.3701436, 40.0000000, 0.0720799, -163.8999023, -528.2966309, 708.5000000, 0.0000017, 1.8019969, -0.5484091, -1.2535878, 0.0000000, 0.0000017, -0.0000080, -8.3318873, 2.5356775, 5.7962097, 0.0000000, -0.0000080
-89.9999894, -75.4964793, -96.5061500, -97.9973706, 90.0000000, 0.0000106, 0.0000000, 0.0000000, 0.0000000, 41.0000000, 0.0000000, -163.8999023, -528.2966309, 708.5000000, 0.0000000, 0.0000000, 0.0000000, 0.0000000, 0.0000000, 0.0000000, 0.0000000, 0.0000000, 0.0000000, 0.0000000, 0.0000000, 0.0000000
-90.1140516, -75.5258561, -96.7232839, -97.7508599, 90.0000000, -0.1140516, 0.0000000, 2.6008149, 0.2465107, 42.0000000, 0.1000000, -164.9525649, -528.6103632, 706.1425200, -1.1406216, -0.2937680, -2.1713392, 2.4651072, 0.0000000, -1.1406216, -11.4062158, -2.9376803, -21.7133921, 24.6510724, 0.0000000, -11.4062158
-90.1943038, -75.5465252, -96.8760557, -97.5774191, 90.0000000, -0.1943038, 0.0000000, 1.8303136, 0.4199516, 42.0000000, 0.0832925, -165.6943176, -528.8235832, 704.4828851, -0.9634994, -0.2481501, -1.8341613, 2.0823114, 0.0000000, -0.9634994, 2.1265096, 0.5476843, 4.0481205, -4.5958048, 0.0000000, 2.1265096
-90.1943038, -75.5465252, -96.8760557, -97.5774191, 90.0000000, -0.1943038, 0.0000000, 0.0000000, 0.0000000, 42.0000000, 0.0000000, -165.6943176, -528.8235832, 704.4828851, 0.0000000, 0.0000000, 0.0000000, 0.0000000, 0.0000000, 0.0000000, 0.0000000, 0.0000000, 0.0000000, 0.0000000, 0.0000000, 0.0000000
-90.3095103, -75.5782518, -97.0943291, -97.3274191, 90.0000000, -0.3095103, 0.0000000, 2.6349523, 0.2500000, 43.0000000, 0.1000000, -166.7608274, -529.1413849, 702.0944688, -1.1520653, -0.3172665, -2.1827335, 2.5000000, 0.0000000, -1.1520653, -11.5206528, -3.1726653, -21.8273347, 25.0000000, 0.0000000, -11.5206528
-90.5411818, -75.6420517, -97.5332601, -96.8246882, 90.0000000, -0.5411818, 0.0000000, 5.3006496, 0.7527309, 43.0000000, 0.1000000, -168.9110822, -529.7413946, 697.2868417, -2.3167151, -0.6379987, -4.3893100, 5.0273087, 0.0000000, -2.3167151, -11.6464983, -3.2073218, -22.0657649, 25.2730867, 0.0000000, -11.6464983
-90.5817668, -75.6532284, -97.6101534, -96.7366182, 90.0000000, -0.5817668, 0.0000000, 0.9288570, 0.8408008, 43.0000000, 0.0593532, -169.2885063, -529.8411293, 696.4440016, -0.6837873, -0.1883077, -1.2955215, 1.4838293, 0.0000000, -0.6837873, 27.5120574, 7.5765281, 52.1250747, -59.7016028, -0.0000000, 27.5120574
-90.5817668, -75.6532284, -97.6101534, -96.7366182, 90.0000000, -0.5817668, 0.0000000, 0.0000000, 0.0000000, 43.0000000, 0.0000000, -169.2885063, -529.8411293, 696.4440016, 0.0000000, 0.0000000, 0.0000000, 0.0000000, 0.0000000, 0.0000000, 0.0000000, 0.0000000, 0.0000000, 0.0000000, 0.0000000, 0.0000000
-90.6960281, -75.6888155, -97.8245663, -96.4866182, 90.0000000, -0.6960281, 0.0000000, 2.6293311, 0.2500000, 44.0000000, 0.1000000, -170.3527649, -530.1583069, 694.0606983, -1.1426133, -0.3558710, -2.1441290, 2.5000000, 0.0000000, -1.1426133, -11.4261332, -3.5587103, -21.4412897, 25.0000000, 0.0000000, -11.4261332
-90.9262559, -75.7605207, -98.2565917, -95.9828875, 90.0000000, -0.9262559, 0.0000000, 5.2994616, 0.7537307, 44.0000000, 0.1000000, -172.5025186, -530.7582212, 689.2541449, -2.3022776, -0.7170527, -4.3202543, 5.0373070, 0.0000000, -2.3022776, -11.5966429, -3.6118162, -21.7612534, 25.3730696, 0.0000000, -11.5966429
-90.9668948, -75.7731779, -98.3328513, -95.8939708, 90.0000000, -0.9668948, 0.0000000, 0.9356614, 0.8426474, 44.0000000, 0.0596378, -172.8826959, -530.8586737, 688.4051238, -0.6814296, -0.2122337, -1.2787116, 1.4909453, 0.0000000, -0.6814296, 27.1781952, 8.4647467, 51.0002418, -59.4649886, 0.0000000, 27.1781952
-90.9668948, -75.7731779, -98.3328513, -95.8939708, 90.0000000, -0.9668948, 0.0000000, 0.0000000, 0.0000000, 44.0000000, 0.0000000, -172.8826959, -530.8586737, 688.4051238, 0.0000000, 0.0000000, 0.0000000, 0.0000000, 0.0000000, 0.0000000, 0.0000000, 0.0000000, 0.0000000, 0.0000000, 0.0000000, 0.0000000
-91.0802000, -75.8126181, -98.5434111, -95.6439708, 90.0000000, -1.0802000, 0.0000000, 2.6234246, 0.2500000, 45.0000000, 0.1000000, -173.9445901, -531.1751922, 686.0271933, -1.1330521, -0.3944020, -2.1055980, 2.5000000, 0.0000000, -1.1330521, -11.3305205, -3.9440200, -21.0559800, 25.0000000, 0.0000000, -11.3305205
-91.3089771, -75.8922526, -98.9685570, -95.1391904, 90.0000000, -1.3089771, 0.0000000, 5.2981885, 0.7547805, 45.0000000, 0.1000000, -176.0938065, -531.7750054, 681.2217907, -2.2877702, -0.7963457, -4.2514590, 5.0478047, 0.0000000, -2.2877702, -11.5471816, -4.0194371, -21.4586103, 25.4780474, 0.0000000, -11.5471816
-91.3496817, -75.9064215, -99.0442002, -95.0493784, 90.0000000, -1.3496817, 0.0000000, 0.9428364, 0.8445924, 45.0000000, 0.0599373, -176.4768864, -531.8762162, 680.3662519, -0.6791207, -0.2363939, -1.2620384, 1.4984323, 0.0000000, -0.6791207, 26.8388748, 9.3422945, 49.8758032, -59.2180977, 0.0000000, 26.8388748
-91.3496817, -75.9064215, -99.0442002, -95.0493784, 90.0000000, -1.3496817, 0.0000000, 0.0000000, 0.0000000, 45.0000000, 0.0000000, -176.4768864, -531.8762162, 680.3662519, 0.0000000, 0.0000000, 0.0000000, 0.0000000, 0.0000000, 0.0000000, 0.0000000, 0.0000000, 0.0000000, 0.0000000, 0.0000000, 0.0000000
-91.4620215, -75.9497071, -99.2509145, -94.7993784, 90.0000000, -1.4620215, 0.0000000, 2.6172598, 0.2500000, 46.0000000, 0.1000000, -177.5363139, -532.1920437, 677.9939291, -1.1233979, -0.4328564, -2.0671436, 2.5000000, 0.0000000, -1.1233979, -11.2339788, -4.3285636, -20.6714364, 25.0000000, 0.0000000, -11.2339788
-91.6893414, -76.0372957, -99.6692016, -94.2935027, 90.0000000, -1.6893414, 0.0000000, 5.2968307, 0.7558757, 46.0000000, 0.1000000, -179.6849572, -532.7917500, 673.1897539, -2.2731987, -0.8758860, -4.1828708, 5.0587568, 0.0000000, -2.2731987, -11.4980077, -4.4302965, -21.1572712, 25.5875677, 0.0000000, -11.4980077
-91.7301220, -76.0530089, -99.7442412, -94.2027499, 90.0000000, -1.7301220, 0.0000000, 0.9503542, 0.8466285, 46.0000000, 0.0602504, -180.0710776, -532.8937566, 672.3273857, -0.6768519, -0.2607978, -1.2454627, 1.5062604, 0.0000000, -0.6768519, 26.4951980, 10.2088629, 48.7533234, -58.9621863, 0.0000000, 26.4951980
-91.7301220, -76.0530089, -99.7442412, -94.2027499, 90.0000000, -1.7301220, 0.0000000, 0.0000000, 0.0000000, 46.0000000, 0.0000000, -180.0710776, -532.8937566, 672.3273857, 0.0000000, 0.0000000, 0.0000000, 0.0000000, 0.0000000, 0.0000000, 0.0000000, 0.0000000, 0.0000000, 0.0000000, 0.0000000, 0.0000000
-91.8414887, -76.1001320, -99.9471181, -93.9527499, 90.0000000, -1.8414887, 0.0000000, 2.6108638, 0.2500000, 47.0000000, 0.1000000, -181.1279470, -533.2088642, 669.9608811, -1.1136668, -0.4712311, -2.0287689, 2.5000000, 0.0000000, -1.1136668, -11.1366679, -4.7123115, -20.2876885, 25.0000000, 0.0000000, -11.1366679
-92.0673455, -76.1956999, -100.3585620, -93.4457381, 90.0000000, -2.0673455, 0.0000000, 5.2953890, 0.7570118, 47.0000000, 0.1000000, -183.2759819, -533.8084578, 665.1580092, -2.2585687, -0.9556790, -4.1144389, 5.0701178, 0.0000000, -2.2585687, -11.4490196, -4.8444783, -20.8567001, 25.7011783, 0.0000000, -11.4490196
-92.1082110, -76.2129915, -100.4330067, -93.3540019, 90.0000000, -2.1082110, 0.0000000, 0.9581872, 0.8487480, 47.0000000, 0.0605760, -183.6652695, -533.9112947, 664.2885253, -0.6746146, -0.2854529, -1.2289466, 1.5143995, 0.0000000, -0.6746146, 26.1482220, 11.0642220, 47.6342642, -58.6984862, 0.0000000, 26.1482220
-92.1082110, -76.2129915, -100.4330067, -93.3540019, 90.0000000, -2.1082110, 0.0000000, 0.0000000, 0.0000000, 47.0000000, 0.0000000, -183.6652695, -533.9112947, 664.2885253, 0.0000000, 0.0000000, 0.0000000, 0.0000000, 0.0000000, 0.0000000, 0.0000000, 0.0000000, 0.0000000, 0.0000000, 0.0000000, 0.0000000
-92.2185984, -76.2639438, -100.6320543, -93.1040019, 90.0000000, -2.2185984, 0.0000000, 2.6042635, 0.2500000, 48.0000000, 0.1000000, -184.7195003, -534.2256564, 661.9280248, -1.1038744, -0.5095235, -1.9904765, 2.5000000, 0.0000000, -1.1038744, -11.0387438, -5.0952354, -19.9047646, 25.0000000, 0.0000000, -11.0387438
-92.4429871, -76.3675166, -101.0366658, -92.5958176, 90.0000000, -2.4429871, 0.0000000, 5.2938647, 0.7581843, 48.0000000, 0.1000000, -186.8668921, -534.8251314, 657.1265311, -2.2438864, -1.0357274, -4.0461153, 5.0818427, 0.0000000, -2.2438864, -11.4001199, -5.2620385, -20.5563882, 25.8184266, 0.0000000, -11.4001199
-92.4839448, -76.3864217, -101.1105198, -92.5030585, 90.0000000, -2.4839448, 0.0000000, 0.9663069, 0.8509434, 48.0000000, 0.0609128, -187.2594622, -534.9288302, 656.2496705, -0.6724004, -0.3103649, -1.2124543, 1.5228191, 0.0000000, -0.6724004, 25.7989591, 11.9082182, 46.5199859, -58.4282041, 0.0000000, 25.7989591
-92.4839448, -76.3864217, -101.1105198, -92.5030585, 90.0000000, -2.4839448, 0.0000000, 0.0000000, 0.0000000, 48.0000000, 0.0000000, -187.2594622, -534.9288302, 656.2496705, 0.0000000, 0.0000000, 0.0000000, 0.0000000, 0.0000000, 0.0000000, 0.0000000, 0.0000000, 0.0000000, 0.0000000, 0.0000000, 0.0000000
-92.5933484, -76.4411948, -101.3057467, -92.2530585, 90.0000000, -2.5933484, 0.0000000, 2.5974856, 0.2500000, 49.0000000, 0.1000000, -188.3109846, -535.2424231, 653.8953359, -1.0940358, -0.5477309, -1.9522691, 2.5000000, 0.0000000, -1.0940358, -10.9403585, -5.4773088, -19.5226912, 25.0000000, 0.0000000, -10.9403585
-92.8162642, -76.5527980, -101.7035321, -91.7436699, 90.0000000, -2.8162642, 0.0000000, 5.2922598, 0.7593886, 49.0000000, 0.1000000, -190.4576993, -535.8417736, 649.0952934, -2.2291575, -1.1160314, -3.9778545, 5.0938859, 0.0000000, -2.2291575, -11.3512166, -5.6830056, -20.2558533, 25.9388589, 0.0000000, -11.3512166
-92.8573204, -76.5733529, -101.7767956, -91.6498516, 90.0000000, -2.8573204, 0.0000000, 0.9746849, 0.8532069, 49.0000000, 0.0612595, -190.8536554, -535.9463630, 648.2108216, -0.6702014, -0.3355375, -1.1959513, 1.5314887, 0.0000000, -0.6702014, 25.4483770, 12.7407725, 45.4117484, -58.1525209, -0.0000000, 25.4483770
-92.8573204, -76.5733529, -101.7767956, -91.6498516, 90.0000000, -2.8573204, 0.0000000, 0.0000000, 0.0000000, 49.0000000, 0.0000000, -190.8536554, -535.9463630, 648.2108216, 0.0000000, 0.0000000, 0.0000000, 0.0000000, 0.0000000, 0.0000000, 0.0000000, 0.0000000, 0.0000000, 0.0000000, 0.0000000, 0.0000000
-92.9657370, -76.6319379, -101.9682105, -91.3998516, 90.0000000, -2.9657370, 0.0000000, 2.5905569, 0.2500000, 50.0000000, 0.1000000, -191.9024105, -536.2591672, 645.8627902, -1.0841660, -0.5858507, -1.9141493, 2.5000000, 0.0000000, -1.0841660, -10.8416599, -5.8585066, -19.1414934, 25.0000000, 0.0000000, -10.8416599
-93.1871758, -76.7515968, -102.3591718, -90.8892314, 90.0000000, -3.1871758, 0.0000000, 5.2905765, 0.7606202, 50.0000000, 0.1000000, -194.0484154, -536.8583873, 641.0642698, -2.2143882, -1.1965887, -3.9096133, 5.1062020, 0.0000000, -2.2143882, -11.3022223, -6.1073806, -19.9546393, 26.0620199, 0.0000000, -11.3022223
-93.2283353, -76.7738381, -102.4318410, -90.7943209, 90.0000000, -3.2283353, 0.0000000, 0.9832918, 0.8555307, 50.0000000, 0.0616151, -194.4478491, -536.9638928, 640.1719784, -0.6680098, -0.3609724, -1.1794048, 1.5403772, 0.0000000, -0.6680098, 25.0973985, 13.5618785, 44.3107135, -57.8725920, 0.0000000, 25.0973985
-93.2283353, -76.7738381, -102.4318410, -90.7943209, 90.0000000, -3.2283353, 0.0000000, 0.0000000, 0.0000000, 50.0000000, 0.0000000, -194.4478491, -536.9638928, 640.1719784, 0.0000000, 0.0000000, 0.0000000, 0.0000000, 0.0000000, 0.0000000, 0.0000000, 0.0000000, 0.0000000, 0.0000000, 0.0000000, 0.0000000
-93.3357632, -76.8362262, -102.6194529, -90.5443209, 90.0000000, -3.3357632, 0.0000000, 2.5835041, 0.2500000, 51.0000000, 0.1000000, -195.4937887, -537.2758913, 637.8303634, -1.0742793, -0.6238806, -1.8761194, 2.5000000, 0.0000000, -1.0742793, -10.7427926, -6.2388059, -18.7611941, 25.0000000, 0.0000000, -10.7427926
-93.5557217, -76.9639656, -103.0035880, -90.0324464, 90.0000000, -3.5557217, 0.0000000, 5.2888181, 0.7618745, 51.0000000, 0.1000000, -197.6390525, -537.8749754, 633.0334333, -2.1995847, -1.2773943, -3.8413509, 5.1187452, 0.0000000, -2.1995847, -11.2530547, -6.5351373, -19.6523151, 26.1874523, 0.0000000, -11.2530547
-93.5969879, -76.9879307, -103.0756551, -89.9364142, 90.0000000, -3.5969879, 0.0000000, 0.9920978, 0.8579067, 51.0000000, 0.0619781, -198.0420432, -537.9814195, 632.1331410, -0.6658181, -0.3866695, -1.1627836, 1.5494531, 0.0000000, -0.6658181, 24.7469024, 14.3716002, 43.2179470, -57.5895472, 0.0000000, 24.7469024
-93.5969879, -76.9879307, -103.0756551, -89.9364142, 90.0000000, -3.5969879, 0.0000000, 0.0000000, 0.0000000, 51.0000000, 0.0000000, -198.0420432, -537.9814195, 632.1331410, 0.0000000, 0.0000000, 0.0000000, 0.0000000, 0.0000000, 0.0000000, 0.0000000, 0.0000000, 0.0000000, 0.0000000, 0.0000000, 0.0000000
-93.7034268, -77.0541125, -103.2594733, -89.6864142, 90.0000000, -3.7034268, 0.0000000, 2.5763539, 0.2500000, 52.0000000, 0.1000000, -199.0851298, -538.2925984, 629.7980313, -1.0643897, -0.6618186, -1.8381814, 2.5000000, 0.0000000, -1.0643897, -10.6438970, -6.6181858, -18.3818142, 25.0000000, 0.0000000, -10.6438970
-93.9219022, -77.1899566, -103.6367762, -89.1732672, 90.0000000, -3.9219022, 0.0000000, 5.2869883, 0.7631470, 52.0000000, 0.1000000, -201.2296227, -538.8915409, 625.0027562, -2.1847534, -1.3584408, -3.7730288, 5.1314696, 0.0000000, -2.1847534, -11.2036367, -6.9662220, -19.3484743, 26.3146963, 0.0000000, -11.2036367
-93.9632771, -77.2156828, -103.7082299, -89.0760873, 90.0000000, -3.9632771, 0.0000000, 1.0010725, 0.8603269, 52.0000000, 0.0623474, -201.6362377, -538.9989428, 624.0943096, -0.6636191, -0.4126266, -1.1460580, 1.5586846, 0.0000000, -0.6636191, 24.3977240, 15.1700708, 42.1344203, -57.3044911, 0.0000000, 24.3977240
-93.9632771, -77.2156828, -103.7082299, -89.0760873, 90.0000000, -3.9632771, 0.0000000, 0.0000000, 0.0000000, 52.0000000, 0.0000000, -201.6362377, -538.9989428, 624.0943096, 0.0000000, 0.0000000, 0.0000000, 0.0000000, 0.0000000, 0.0000000, 0.0000000, 0.0000000, 0.0000000, 0.0000000, 0.0000000, 0.0000000
-94.0687282, -77.2856491, -103.8882636, -88.8260873, 90.0000000, -4.0687282, 0.0000000, 2.5691329, 0.2500000, 53.0000000, 0.1000000, -202.6764447, -539.3092911, 621.7657699, -1.0545110, -0.6996628, -1.8003372, 2.5000000, 0.0000000, -1.0545110, -10.5451102, -6.9966281, -18.0033719, 25.0000000, 0.0000000, -10.5451102
-94.2857182, -77.4296209, -104.2587247, -88.3116544, 90.0000000, -4.2857182, 0.0000000, 5.2850917, 0.7644329, 53.0000000, 0.1000000, -204.8201387, -539.9080869, 616.9722103, -2.1699006, -1.4397182, -3.7046107, 5.1443289, 0.0000000, -2.1699006, -11.1538958, -7.4005543, -19.0427347, 26.4432890, 0.0000000, -11.1538958
-94.3272026, -77.4571456, -104.3295498, -88.2133046, 90.0000000, -4.3272026, 0.0000000, 1.0101847, 0.8627828, 53.0000000, 0.0627216, -205.2304324, -540.0164625, 616.0554841, -0.6614058, -0.4388395, -1.1291997, 1.5680391, 0.0000000, -0.6614058, 24.0506562, 15.9574906, 41.0610133, -57.0185039, -0.0000000, 24.0506562
-94.3272026, -77.4571456, -104.3295498, -88.2133046, 90.0000000, -4.3272026, 0.0000000, 0.0000000, 0.0000000, 53.0000000, 0.0000000, -205.2304324, -540.0164625, 616.0554841, 0.0000000, 0.0000000, 0.0000000, 0.0000000, 0.0000000, 0.0000000, 0.0000000, 0.0000000, 0.0000000, 0.0000000, 0.0000000, 0.0000000
-94.4316683, -77.5308868, -104.5058087, -87.9633046, 90.0000000, -4.4316683, 0.0000000, 2.5618678, 0.2500000, 54.0000000, 0.1000000, -206.2677440, -540.3259725, 613.7335549, -1.0446566, -0.7374117, -1.7625883, 2.5000000, 0.0000000, -1.0446566, -10.4465656, -7.3741169, -17.6258831, 25.0000000, 0.0000000, -10.4465656
-94.6471716, -77.6830082, -104.8694149, -87.4475769, 90.0000000, -4.6471716, 0.0000000, 5.2831335, 0.7657276, 54.0000000, 0.1000000, -208.4106135, -540.9246166, 608.9417666, -2.1550331, -1.5212144, -3.6360621, 5.1572764, 0.0000000, -2.1550331, -11.1037650, -7.8380268, -18.7347376, 26.5727644, 0.0000000, -11.1037650
-94.6887649, -77.7123685, -104.9395928, -87.3480387, 90.0000000, -4.6887649, 0.0000000, 1.0194023, 0.8652658, 54.0000000, 0.0630993, -208.8246273, -541.0339784, 608.0166647, -0.6591715, -0.4653020, -1.1121817, 1.5774837, 0.0000000, -0.6591715, 23.7064507, 16.7341254, 39.9985168, -56.7326421, 0.0000000, 23.7064507
-94.6887649, -77.7123685, -104.9395928, -87.3480387, 90.0000000, -4.6887649, 0.0000000, 0.0000000, 0.0000000, 54.0000000, 0.0000000, -208.8246273, -541.0339784, 608.0166647, 0.0000000, 0.0000000, 0.0000000, 0.0000000, 0.0000000, 0.0000000, 0.0000000, 0.0000000, 0.0000000, 0.0000000, 0.0000000, 0.0000000
-94.7922488, -77.7898749, -105.1120864, -87.0980387, 90.0000000, -4.7922488, 0.0000000, 2.5545854, 0.2500000, 55.0000000, 0.1000000, -209.8590383, -541.3426452, 605.7013622, -1.0348393, -0.7750639, -1.7249361, 2.5000000, 0.0000000, -1.0348393, -10.3483932, -7.7506394, -17.2493606, 25.0000000, 0.0000000, -10.3483932
-95.0062646, -77.9501663, -105.4688215, -86.5810122, 90.0000000, -5.0062646, 0.0000000, 5.2811199, 0.7670265, 55.0000000, 0.1000000, -212.0010603, -541.9411332, 600.9113956, -2.1401575, -1.6029145, -3.5673508, 5.1702653, 0.0000000, -2.1401575, -11.0531820, -8.2785053, -18.4241475, 26.7026528, 0.0000000, -11.0531820
-95.0479648, -77.9813985, -105.5383301, -86.4802714, 90.0000000, -5.0479648, 0.0000000, 1.0286926, 0.8677673, 55.0000000, 0.0634794, -212.4188223, -542.0514905, 599.9778515, -0.6569097, -0.4920058, -1.0949788, 1.5869847, 0.0000000, -0.6569097, 23.3658189, 17.5003050, 38.9476345, -56.4479396, 0.0000000, 23.3658189
-95.0479648, -77.9813985, -105.5383301, -86.4802714, 90.0000000, -5.0479648, 0.0000000, 0.0000000, 0.0000000, 55.0000000, 0.0000000, -212.4188223, -542.0514905, 599.9778515, 0.0000000, 0.0000000, 0.0000000, 0.0000000, 0.0000000, 0.0000000, 0.0000000, 0.0000000, 0.0000000, 0.0000000, 0.0000000, 0.0000000
-95.1504720, -78.0626604, -105.7070682, -86.2302714, 90.0000000, -5.1504720, 0.0000000, 2.5473124, 0.2500000, 56.0000000, 0.1000000, -213.4503383, -542.3593122, 597.6691677, -1.0250719, -0.8126186, -1.6873814, 2.5000000, 0.0000000, -1.0250719, -10.2507195, -8.1261860, -16.8738140, 25.0000000, 0.0000000, -10.2507195
-95.3630001, -78.2311405, -106.0569129, -85.7119466, 90.0000000, -5.3630001, 0.0000000, 5.2790576, 0.7683248, 56.0000000, 0.1000000, -215.5914927, -542.9576401, 592.8810667, -2.1252809, -1.6848015, -3.4984465, 5.1832481, 0.0000000, -2.1252809, -11.0020892, -8.7218291, -18.1106515, 26.8324806, 0.0000000, -11.0020892
-95.4048039, -78.2642803, -106.1257266, -85.6099931, 90.0000000, -5.4048039, 0.0000000, 1.0380218, 0.8702783, 56.0000000, 0.0638603, -216.0130173, -543.0689984, 591.9390446, -0.6546141, -0.5189407, -1.0775670, 1.5965077, 0.0000000, -0.6546141, 23.0294339, 18.2564223, 37.9089864, -56.1654087, 0.0000000, 23.0294339
-95.4048039, -78.2642803, -106.1257266, -85.6099931, 90.0000000, -5.4048039, 0.0000000, 0.0000000, 0.0000000, 56.0000000, 0.0000000, -216.0130173, -543.0689984, 591.9390446, 0.0000000, 0.0000000, 0.0000000, 0.0000000, 0.0000000, 0.0000000, 0.0000000, 0.0000000, 0.0000000, 0.0000000, 0.0000000, 0.0000000
-95.5063406, -78.3492878, -106.2907191, -85.3599931, 90.0000000, -5.5063406, 0.0000000, 2.5400757, 0.2500000, 57.0000000, 0.1000000, -217.0416549, -543.3759763, 589.6369470, -1.0153668, -0.8500750, -1.6499250, 2.5000000, 0.0000000, -1.0153668, -10.1536677, -8.5007504, -16.4992496, 25.0000000, 0.0000000, -10.1536677
-95.7173816, -78.5259734, -106.6336512, -84.8403754, 90.0000000, -5.7173816, 0.0000000, 5.2769545, 0.7696177, 57.0000000, 0.1000000, -219.1819246, -543.9741408, 584.8507487, -2.1104102, -1.7668561, -3.4293209, 5.1961770, 0.0000000, -2.1104102, -10.9504341, -9.1678111, -17.7939589, 26.9617700, 0.0000000, -10.9504341
-95.7592845, -78.5610549, -106.7017415, -84.7372037, 90.0000000, -5.7592845, 0.0000000, 1.0473554, 0.8727894, 57.0000000, 0.0642407, -219.6072121, -544.0865020, 583.9002442, -0.6522789, -0.5460943, -1.0599236, 1.6060178, 0.0000000, -0.6522789, 22.6979320, 19.0029317, 36.8831102, -55.8860419, 0.0000000, 22.6979320
-95.7592845, -78.5610549, -106.7017415, -84.7372037, 90.0000000, -5.7592845, 0.0000000, 0.0000000, 0.0000000, 57.0000000, 0.0000000, -219.6072121, -544.0865020, 583.9002442, 0.0000000, 0.0000000, 0.0000000, 0.0000000, 0.0000000, 0.0000000, 0.0000000, 0.0000000, 0.0000000, 0.0000000, 0.0000000, 0.0000000
-95.8598581, -78.6497982, -106.8629982, -84.4872037, 90.0000000, -5.8598581, 0.0000000, 2.5329021, 0.2500000, 58.0000000, 0.1000000, -220.6329988, -544.3926405, 581.6046759, -1.0057358, -0.8874330, -1.6125670, 2.5000000, 0.0000000, -1.0057358, -10.0573578, -8.8743300, -16.1256700, 25.0000000, 0.0000000, -10.0573578
-96.0694133, -78.8347038, -107.1989929, -83.9663033, 90.0000000, -6.0694133, 0.0000000, 5.2748192, 0.7709004, 58.0000000, 0.1000000, -222.7723703, -544.9906389, 576.8204095, -2.0955526, -1.8490568, -3.3599471, 5.2090039, 0.0000000, -2.0955526, -10.8981686, -9.6162378, -17.4738010, 27.0900388, 0.0000000, -10.8981686
-96.1114092, -78.8717598, -107.2663278, -83.8619124, 90.0000000, -6.1114092, 0.0000000, 1.0566579, 0.8752913, 58.0000000, 0.0646192, -223.2014067, -545.1040012, 575.8614503, -0.6498981, -0.5734518, -1.0420274, 1.6154793, 0.0000000, -0.6498981, 22.3719139, 19.7403483, 35.8704648, -55.6108131, 0.0000000, 22.3719139
-96.1114092, -78.8717598, -107.2663278, -83.8619124, 90.0000000, -6.1114092, 0.0000000, 0.0000000, 0.0000000, 58.0000000, 0.0000000, -223.2014067, -545.1040012, 575.8614503, 0.0000000, 0.0000000, 0.0000000, 0.0000000, 0.0000000, 0.0000000, 0.0000000, 0.0000000, 0.0000000, 0.0000000, 0.0000000, 0.0000000
-96.2110283, -78.9642291, -107.4238586, -83.6119124, 90.0000000, -6.2110283, 0.0000000, 2.5258187, 0.2500000, 59.0000000, 0.1000000, -224.2243808, -545.4093078, 573.5723300, -0.9961907, -0.9246926, -1.5753074, 2.5000000, 0.0000000, -0.9961907, -9.9619066, -9.2469263, -15.7530737, 25.0000000, 0.0000000, -9.9619066
-96.4190998, -79.1573670, -107.7528886, -83.0897444, 90.0000000, -6.4190998, 0.0000000, 5.2726610, 0.7721680, 59.0000000, 0.1000000, -226.3628446, -546.0071380, 568.7900162, -2.0807155, -1.9313796, -3.2903004, 5.2216800, 0.0000000, -2.0807155, -10.8452489, -10.0668698, -17.1499304, 27.2168002, 0.0000000, -10.8452489
-96.4611814, -79.1964284, -107.8194335, -82.9841381, 90.0000000, -6.4611814, 0.0000000, 1.0658928, 0.8777742, 59.0000000, 0.0649942, -226.7956009, -546.1214958, 567.8226632, -0.6474664, -0.6009968, -1.0238588, 1.6248556, 0.0000000, -0.6474664, 22.0519472, 20.4692473, 34.8714320, -55.3406793, 0.0000000, 22.0519472
-96.4611814, -79.1964284, -107.8194335, -82.9841381, 90.0000000, -6.4611814, 0.0000000, 0.0000000, 0.0000000, 59.0000000, 0.0000000, -226.7956009, -546.1214958, 567.8226632, 0.0000000, 0.0000000, 0.0000000, 0.0000000, 0.0000000, 0.0000000, 0.0000000, 0.0000000, 0.0000000, 0.0000000, 0.0000000, 0.0000000
-96.5598557, -79.2926138, -107.9732481, -82.7341381, 90.0000000, -6.5598557, 0.0000000, 2.5188526, 0.2500000, 60.0000000, 0.1000000, -227.8158117, -546.4259811, 565.5398849, -0.9867428, -0.9618545, -1.5381455, 2.5000000, 0.0000000, -0.9867428, -9.8674277, -9.6185450, -15.3814550, 25.0000000, 0.0000000, -9.8674277
-96.7664463, -79.4939937, -108.2952838, -82.2107225, 90.0000000, -6.7664463, 0.0000000, 5.2704902, 0.7734156, 60.0000000, 0.1000000, -229.9533625, -547.0236420, 560.7595350, -2.0659063, -2.0137987, -3.2203576, 5.2341563, 0.0000000, -2.0659063, -10.7916357, -10.5194420, -16.8221207, 27.3415627, 0.0000000, -10.7916357
-96.8086049, -79.5350889, -108.3610011, -82.1039099, 90.0000000, -6.8086049, 0.0000000, 1.0750228, 0.8802282, 60.0000000, 0.0653644, -230.3897947, -547.1389857, 559.7838830, -0.6449783, -0.6287102, -1.0053993, 1.6341095, 0.0000000, -0.6449783, 21.7385677, 21.1902634, 33.8863191, -55.0765825, 0.0000000, 21.7385677
-96.9060757, -79.6323944, -108.5118262, -81.8557794, 90.0000000, -6.9060757, 0.0000000, 2.4948455, 0.2481306, 60.0000000, 0.1000000, -231.4017731, -547.4193651, 557.5208008, -0.9747075, -0.9730547, -1.5082511, 2.4813058, 0.0000000, -0.9747075, -3.2972916, -3.4434442, -5.0285183, 8.4719624, 0.0000000, -3.2972916
-96.9817300, -79.7079205, -108.6288929, -81.6631866, 90.0000000, -6.9817300, 0.0000000, 1.9357615, 0.4407233, 60.0000000, 0.0877708, -232.1875000, -547.6286621, 555.7640991, -0.8619538, -0.8604922, -1.3337774, 2.1942696, 0.0000000, -0.8619538, 1.2846379, 1.2824596, 1.9878340, -3.2702936, 0.0000000, 1.2846379
-96.9817300, -79.7079205, -108.6288929, -81.6631866, 90.0000000, -6.9817300, 0.0000000, 0.0000000, 0.0000000, 61.0000000, 0.0000000, -232.1875000, -547.6286621, 555.7640991, 0.0000000, 0.0000000, 0.0000000, 0.0000000, 0.0000000, 0.0000000, 0.0000000, 0.0000000, 0.0000000, 0.0000000, 0.0000000, 0.0000000
-96.8809873, -79.9579205, -108.4242029, -81.6178766, 90.0000000, -6.8809873, 0.0000000, 3.0266531, 0.2500000, 62.0000000, 0.1000000, -231.5316414, -550.5832973, 555.7887830, 1.0074271, -2.5000000, 2.0468999, 0.4531001, 0.0000000, 1.0074271, 10.0742707, -25.0000000, 20.4689994, 4.5310006, 0.0000000, 10.0742707
-96.7234377, -80.3488907, -108.1040921, -81.5470171, 90.0000000, -6.7234377, 0.0000000, 4.7393687, 0.6409702, 62.0000000, 0.1000000, -230.4869559, -555.2060673, 555.8044592, 1.5754960, -3.9097024, 3.2011079, 0.7085946, 0.0000000, 1.5754960, 5.6806897, -14.0970245, 11.5420794, 2.5549450, 0.0000000, 5.6806897
-96.7140519, -80.3721824, -108.0850218, -81.5427958, 90.0000000, -6.7140519, 0.0000000, 0.2825769, 0.6642619, 62.0000000, 0.0305232, -230.4239872, -555.4815391, 555.8045098, 0.3074991, -0.7630804, 0.6247797, 0.1383007, 0.0000000, 0.3074991, -41.5420483, 103.0894675, -84.4055301, -18.6839374, 0.0000000, -41.5420483
-96.7140519, -80.3721824, -108.0850218, -81.5427958, 90.0000000, -6.7140519, 0.0000000, 0.0000000, 0.0000000, 62.0000000, 0.0000000, -230.4239872, -555.4815391, 555.8045098, 0.0000000, 0.0000000, 0.0000000, 0.0000000, 0.0000000, 0.0000000, 0.0000000, 0.0000000, 0.0000000, 0.0000000, 0.0000000, 0.0000000
-96.6158480, -80.6221824, -107.8772340, -81.5005836, 90.0000000, -6.6158480, 0.0000000, 3.0236912, 0.2500000, 63.0000000, 0.1000000, -229.7681924, -558.4331529, 555.8293599, 0.9820390, -2.5000000, 2.0778787, 0.4221213, 0.0000000, 0.9820390, 9.8203902, -25.0000000, 20.7787870, 4.2212130, 0.0000000, 9.8203902
-96.3479850, -81.3040875, -107.3104675, -81.3854450, 90.0000000, -6.3479850, 0.0000000, 8.2621074, 0.9319051, 63.0000000, 0.1000000, -227.9323128, -566.4887022, 555.8388422, 2.6786297, -6.8190512, 5.6676645, 1.1513867, -0.0000000, 2.6786297, 16.9659072, -43.1905118, 35.8978578, 7.2926540, -0.0000000, 16.9659072
-96.1983376, -81.6850485, -106.9938312, -81.3211203, 90.0000000, -6.1983376, 0.0000000, 4.6251865, 1.3128661, 63.0000000, 0.1000000, -226.8765602, -570.9916700, 555.8069486, 1.4964744, -3.8096103, 3.1663632, 0.6432471, 0.0000000, 1.4964744, -11.8215537, 30.0944092, -25.0130128, -5.0813964, 0.0000000, -11.8215537
-96.1916005, -81.7021993, -106.9795763, -81.3182244, 90.0000000, -6.1916005, 0.0000000, 0.2083834, 1.3300169, 63.0000000, 0.0261922, -226.8285219, -571.1944301, 555.8048850, 0.2572177, -0.6548051, 0.5442423, 0.1105629, 0.0000000, 0.2572177, -47.3139506, 120.4482446, -100.1107368, -20.3375078, 0.0000000, -47.3139506
-96.1916005, -81.7021993, -106.9795763, -81.3182244, 90.0000000, -6.1916005, 0.0000000, 0.0000000, 0.0000000, 63.0000000, 0.0000000, -226.8285219, -571.1944301, 555.8048850, 0.0000000, 0.0000000, 0.0000000, 0.0000000, 0.0000000, 0.0000000, 0.0000000, 0.0000000, 0.0000000, 0.0000000, 0.0000000, 0.0000000
-96.0982843, -81.9521993, -106.7655783, -81.2822224, 90.0000000, -6.0982843, 0.0000000, 3.0180260, 0.2500000, 64.0000000, 0.1000000, -226.1732836, -574.1403626, 555.8298993, 0.9331614, -2.5000000, 2.1399799, 0.3600201, 0.0000000, 0.9331614, 9.3316144, -25.0000000, 21.3997986, 3.6002014, 0.0000000, 9.3316144
-95.8435222, -82.6347236, -106.1813431, -81.1839334, 90.0000000, -5.8435222, 0.0000000, 8.2527824, 0.9325242, 64.0000000, 0.1000000, -224.3393361, -582.1867880, 555.8395348, 2.5476212, -6.8252424, 5.8423525, 0.9828899, 0.0000000, 2.5476212, 16.1445976, -43.2524235, 37.0237261, 6.2286974, 0.0000000, 16.1445976
-95.7006953, -83.0173661, -105.8538042, -81.1288298, 90.0000000, -5.7006953, 0.0000000, 4.6353085, 1.3151667, 64.0000000, 0.1000000, -223.2822378, -586.6998348, 555.8073370, 1.4282689, -3.8264250, 3.2753890, 0.5510360, 0.0000000, 1.4282689, -11.1935227, 29.9881730, -25.6696346, -4.3185385, 0.0000000, -11.1935227
-95.6941281, -83.0349601, -105.8387438, -81.1262961, 90.0000000, -5.6941281, 0.0000000, 0.2132812, 1.3327608, 64.0000000, 0.0265285, -223.2331313, -586.9073749, 555.8052064, 0.2475537, -0.6632125, 0.5677046, 0.0955079, 0.0000000, 0.2475537, -44.5074218, 119.2382685, -102.0669973, -17.1712712, 0.0000000, -44.5074218
-95.6941281, -83.0349601, -105.8387438, -81.1262961, 90.0000000, -5.6941281, 0.0000000, 0.0000000, 0.0000000, 64.0000000, 0.0000000, -223.2331313, -586.9073749, 555.8052064, 0.0000000, 0.0000000, 0.0000000, 0.0000000, 0.0000000, 0.0000000, 0.0000000, 0.0000000, 0.0000000, 0.0000000, 0.0000000, 0.0000000
-95.6053526, -83.2849601, -105.6184950, -81.0965449, 90.0000000, -5.6053526, 0.0000000, 3.0133449, 0.2500000, 65.0000000, 0.1000000, -222.5782841, -589.8485974, 555.8303609, 0.8877550, -2.5000000, 2.2024880, 0.2975120, 0.0000000, 0.8877550, 8.8775495, -25.0000000, 22.0248805, 2.9751195, 0.0000000, 8.8775495
-95.3628013, -83.9680070, -105.0167340, -81.0152590, 90.0000000, -5.3628013, 0.0000000, 8.2449151, 0.9330469, 65.0000000, 0.1000000, -220.7459429, -597.8873196, 555.8401265, 2.4255129, -6.8304686, 6.0176102, 0.8128584, 0.0000000, 2.4255129, 15.3775799, -43.3046864, 38.1512216, 5.1534647, 0.0000000, 15.3775799
-95.2264180, -84.3520749, -104.6783720, -80.9695531, 90.0000000, -5.2264180, 0.0000000, 4.6437094, 1.3171148, 65.0000000, 0.1000000, -219.6878211, -602.4087532, 555.8076689, 1.3638329, -3.8406794, 3.3836202, 0.4570592, 0.0000000, 1.3638329, -10.6168008, 29.8978924, -26.3399002, -3.5579921, 0.0000000, -10.6168008
-95.2200353, -84.3700491, -104.6625368, -80.9674141, 90.0000000, -5.2200353, 0.0000000, 0.2174596, 1.3350890, 65.0000000, 0.0268136, -219.6378102, -602.6203727, 555.8054804, 0.2380390, -0.6703397, 0.5905661, 0.0797736, 0.0000000, 0.2380390, -41.9859479, 118.2363099, -104.1656237, -14.0706862, 0.0000000, -41.9859479
-95.2200353, -84.3700491, -104.6625368, -80.9674141, 90.0000000, -5.2200353, 0.0000000, 0.0000000, 0.0000000, 65.0000000, 0.0000000, -219.6378102, -602.6203727, 555.8054804, 0.0000000, 0.0000000, 0.0000000, 0.0000000, 0.0000000, 0.0000000, 0.0000000, 0.0000000, 0.0000000, 0.0000000, 0.0000000, 0.0000000
-95.1354903, -84.6200491, -104.4360026, -80.9439482, 90.0000000, -5.1354903, 0.0000000, 3.0093373, 0.2500000, 66.0000000, 0.1000000, -218.9832532, -605.5575529, 555.8307530, 0.8454506, -2.5000000, 2.2653414, 0.2346586, 0.0000000, 0.8454506, 8.4545056, -25.0000000, 22.6534137, 2.3465863, 0.0000000, 8.4545056
-94.9043427, -85.3035533, -103.8166545, -80.8797922, 90.0000000, -4.9043427, 0.0000000, 8.2380402, 0.9335042, 66.0000000, 0.1000000, -217.1523005, -613.5895403, 555.8406317, 2.3114760, -6.8350418, 6.1934812, 0.6415606, -0.0000000, 2.3114760, 14.6602541, -43.3504182, 39.2813982, 4.0690199, -0.0000000, 14.6602541
-94.7740351, -85.6888731, -103.4675022, -80.8436247, 90.0000000, -4.7740351, 0.0000000, 4.6509360, 1.3188240, 66.0000000, 0.1000000, -216.0933585, -618.1182023, 555.8079529, 1.3030754, -3.8531982, 3.4915237, 0.3616745, 0.0000000, 1.3030754, -10.0840056, 29.8184366, -27.0195752, -2.7988614, 0.0000000, -10.0840056
-94.7678425, -85.7071846, -103.4509095, -80.8419060, 90.0000000, -4.7678425, 0.0000000, 0.2211476, 1.3371354, 66.0000000, 0.0270640, -216.0425538, -618.3334233, 555.8057132, 0.2288124, -0.6765991, 0.6130912, 0.0635079, 0.0000000, 0.2288124, -39.6934841, 117.3737588, -106.3566526, -11.0171062, 0.0000000, -39.6934841
-94.7678425, -85.7071846, -103.4509095, -80.8419060, 90.0000000, -4.7678425, 0.0000000, 0.0000000, 0.0000000, 66.0000000, 0.0000000, -216.0425538, -618.3334233, 555.8057132, 0.0000000, 0.0000000, 0.0000000, 0.0000000, 0.0000000, 0.0000000, 0.0000000, 0.0000000, 0.0000000, 0.0000000, 0.0000000, 0.0000000
-94.6872500, -85.9571846, -103.2180613, -80.8247541, 90.0000000, -4.6872500, 0.0000000, 3.0057170, 0.2500000, 67.0000000, 0.1000000, -215.3882456, -621.2669488, 555.8310841, 0.8059258, -2.5000000, 2.3284814, 0.1715186, 0.0000000, 0.8059258, 8.0592581, -25.0000000, 23.2848142, 1.7151858, 0.0000000, 8.0592581
-94.4667729, -86.6411094, -102.5810588, -80.7778318, 90.0000000, -4.4667729, 0.0000000, 8.2317221, 0.9339248, 67.0000000, 0.1000000, -213.5585642, -629.2927457, 555.8410647, 2.2047707, -6.8392482, 6.3700249, 0.4692232, 0.0000000, 2.2047707, 13.9884484, -43.3924815, 40.4154348, 2.9770467, 0.0000000, 13.9884484
-94.3421848, -87.0275845, -102.2210988, -80.7513167, 90.0000000, -4.3421848, 0.0000000, 4.6574892, 1.3203999, 67.0000000, 0.1000000, -212.4988962, -633.8279667, 555.8081977, 1.2458810, -3.8647508, 3.5996001, 0.2651506, 0.0000000, 1.2458810, -9.5888969, 29.7449738, -27.7042476, -2.0407262, 0.0000000, -9.5888969
-94.3361805, -87.0462099, -102.2037512, -80.7500389, 90.0000000, -4.3361805, 0.0000000, 0.2245663, 1.3390253, 67.0000000, 0.0272950, -212.4473574, -634.0465268, 555.8059111, 0.2199776, -0.6823754, 0.6355594, 0.0468160, 0.0000000, 0.2199776, -37.5857414, 116.5918152, -108.5927503, -7.9990649, 0.0000000, -37.5857414
-94.3361805, -87.0462099, -102.2037512, -80.7500389, 90.0000000, -4.3361805, 0.0000000, 0.0000000, 0.0000000, 67.0000000, 0.0000000, -212.4473574, -634.0465268, 555.8059111, 0.0000000, 0.0000000, 0.0000000, 0.0000000, 0.0000000, 0.0000000, 0.0000000, 0.0000000, 0.0000000, 0.0000000, 0.0000000, 0.0000000
-94.2592907, -87.2962099, -101.9645659, -80.7392242, 90.0000000, -4.2592907, 0.0000000, 3.0022180, 0.2500000, 68.0000000, 0.1000000, -211.7933121, -636.9765251, 555.8313624, 0.7688981, -2.5000000, 2.3918534, 0.1081466, 0.0000000, 0.7688981, 7.6889806, -25.0000000, 23.9185345, 1.0814655, 0.0000000, 7.6889806
-94.0488171, -87.9805451, -101.3098340, -80.7096208, 90.0000000, -4.0488171, 0.0000000, 8.2255517, 0.9343352, 68.0000000, 0.1000000, -209.9648789, -644.9962776, 555.8414396, 2.1047361, -6.8433524, 6.5473184, 0.2960340, 0.0000000, 2.1047361, 13.3583808, -43.4335237, 41.5546493, 1.8788743, 0.0000000, 13.3583808
-93.9296053, -88.3681510, -100.9389955, -80.6928535, 90.0000000, -3.9296053, 0.0000000, 4.6638313, 1.3219411, 68.0000000, 0.1000000, -208.9044791, -649.5378395, 555.8084116, 1.1921175, -3.8760584, 3.7083855, 0.1676729, 0.0000000, 1.1921175, -9.1261862, 29.6729396, -28.3893292, -1.2836104, 0.0000000, -9.1261862
-93.9237816, -88.3870863, -100.9208792, -80.6920344, 90.0000000, -3.9237816, 0.0000000, 0.2279289, 1.3408764, 68.0000000, 0.0275212, -208.8522168, -649.7596836, 555.8060803, 0.2116097, -0.6880292, 0.6582660, 0.0297632, 0.0000000, 0.2116097, -35.6274043, 115.8391676, -110.8281249, -5.0110426, 0.0000000, -35.6274043
-93.9237816, -88.3870863, -100.9208792, -80.6920344, 90.0000000, -3.9237816, 0.0000000, 0.0000000, 0.0000000, 68.0000000, 0.0000000, -208.8522168, -649.7596836, 555.8060803, 0.0000000, 0.0000000, 0.0000000, 0.0000000, 0.0000000, 0.0000000, 0.0000000, 0.0000000, 0.0000000, 0.0000000, 0.0000000, 0.0000000
-93.8503697, -88.6370863, -100.6753386, -80.6875751, 90.0000000, -3.8503697, 0.0000000, 2.9985921, 0.2500000, 69.0000000, 0.1000000, -208.1985004, -652.6860394, 555.8315963, 0.7341187, -2.5000000, 2.4554065, 0.0445935, 0.0000000, 0.7341187, 7.3411874, -25.0000000, 24.5540649, 0.4459351, 0.0000000, 7.3411874
-93.6492916, -89.3218464, -100.0027929, -80.6753607, 90.0000000, -3.6492916, 0.0000000, 8.2191421, 0.9347601, 69.0000000, 0.1000000, -206.3713805, -660.6995172, 555.8417700, 2.0107809, -6.8476009, 6.7254575, 0.1221434, 0.0000000, 2.0107809, 12.7666212, -43.4760090, 42.7005098, 0.7754992, 0.0000000, 12.7666212
-93.5351273, -89.7106265, -99.6209476, -80.6684259, 90.0000000, -3.5351273, 0.0000000, 4.6703919, 1.3235402, 69.0000000, 0.1000000, -205.3101501, -665.2476213, 555.8086031, 1.1416430, -3.8878009, 3.8184527, 0.0693483, 0.0000000, 1.1416430, -8.6913785, 29.5979996, -29.0700481, -0.5279515, 0.0000000, -8.6913785
-93.5294717, -89.7298864, -99.6020312, -80.6680823, 90.0000000, -3.5294717, 0.0000000, 0.2314414, 1.3428001, 69.0000000, 0.0277560, -205.2571278, -665.4728947, 555.8062267, 0.2037621, -0.6939005, 0.6815231, 0.0123774, 0.0000000, 0.2037621, -33.7901805, 115.0705547, -113.0179947, -2.0525600, 0.0000000, -33.7901805
-93.5294717, -89.7298864, -99.6020312, -80.6680823, 90.0000000, -3.5294717, 0.0000000, 0.0000000, 0.0000000, 69.0000000, 0.0000000, -205.2571278, -665.4728947, 555.8062267, 0.0000000, 0.0000000, 0.0000000, 0.0000000, 0.0000000, 0.0000000, 0.0000000, 0.0000000, 0.0000000, 0.0000000, 0.0000000, 0.0000000
-93.4598664, -89.9779916, -99.3520312, -80.6699772, 90.0000000, -3.4598664, 0.0000000, 2.9719046, 0.2500000, 70.0000000, 0.1000000, -204.6088327, -668.3731162, 555.8316440, 0.6960526, -2.4810512, 2.5000000, -0.0189488, 0.0000000, 0.6960526, 6.9605261, -24.8105115, 25.0000000, -0.1894885, 0.0000000, 6.9605261
-93.2684651, -90.6602339, -98.6645783, -80.6751878, 90.0000000, -3.2684651, 0.0000000, 8.1763797, 0.9374529, 70.0000000, 0.1000000, -202.7913683, -676.3449349, 555.8423058, 1.9140135, -6.8224232, 6.8745289, -0.0521058, 0.0000000, 1.9140135, 12.1796092, -43.4137202, 43.7452893, -0.3315691, 0.0000000, 12.1796092
-93.1581231, -91.0535434, -98.2682649, -80.6781917, 90.0000000, -3.1581231, 0.0000000, 4.7164943, 1.3337663, 70.0000000, 0.1000000, -201.7204189, -680.9381119, 555.8089784, 1.1034199, -3.9330952, 3.9631340, -0.0300387, 0.0000000, 1.1034199, -8.1059363, 28.8932793, -29.1139496, 0.2206703, 0.0000000, -8.1059363
-93.1521628, -91.0747887, -98.2468573, -80.6783539, 90.0000000, -3.1521628, 0.0000000, 0.2548297, 1.3551739, 70.0000000, 0.0292627, -201.6620865, -681.1861616, 555.8063564, 0.2036836, -0.7260220, 0.7315670, -0.0055449, 0.0000000, 0.2036836, -30.7468857, 109.5960199, -110.4330516, 0.8370317, 0.0000000, -30.7468857
-93.1521628, -91.0747887, -98.2468573, -80.6783539, 90.0000000, -3.1521628, 0.0000000, 0.0000000, 0.0000000, 70.0000000, 0.0000000, -201.6620865, -681.1861616, 555.8063564, 0.0000000, 0.0000000, 0.0000000, 0.0000000, 0.0000000, 0.0000000, 0.0000000, 0.0000000, 0.0000000, 0.0000000, 0.0000000, 0.0000000
-93.0872685, -91.3167675, -97.9968573, -80.6863752, 90.0000000, -3.0872685, 0.0000000, 2.8940936, 0.2500000, 71.0000000, 0.1000000, -201.0304629, -684.0103794, 555.8313228, 0.6489423, -2.4197871, 2.5000000, -0.0802129, 0.0000000, 0.6489423, 6.4894227, -24.1978709, 25.0000000, -0.8021291, 0.0000000, 6.4894227
-92.9068486, -91.9895203, -97.3018035, -80.7086761, 90.0000000, -2.9068486, 0.0000000, 8.0486482, 0.9450538, 71.0000000, 0.1000000, -199.2420777, -691.8578167, 555.8433355, 1.8041991, -6.7275288, 6.9505380, -0.2230092, -0.0000000, 1.8041991, 11.5525688, -43.0774171, 44.5053796, -1.4279624, -0.0000000, 11.5525688
-92.7982158, -92.3945925, -96.8833038, -80.7221038, 90.0000000, -2.7982158, 0.0000000, 4.8479637, 1.3635536, 71.0000000, 0.1000000, -198.1423244, -696.5792756, 555.8098549, 1.0863287, -4.0507213, 4.1849976, -0.1342763, 0.0000000, 1.0863287, -7.1787041, 26.7680753, -27.6554035, 0.8873282, 0.0000000, -7.1787041
-92.7908458, -92.4220737, -96.8549116, -80.7230147, 90.0000000, -2.7908458, 0.0000000, 0.3289478, 1.3919457, 71.0000000, 0.0337000, -198.0670893, -696.8994863, 555.8064753, 0.2186932, -0.8154671, 0.8424988, -0.0270317, 0.0000000, 0.2186932, -25.7458971, 96.0017439, -99.1840814, 3.1823376, 0.0000000, -25.7458971
-92.7908458, -92.4220737, -96.8549116, -80.7230147, 90.0000000, -2.7908458, 0.0000000, 0.0000000, 0.0000000, 71.0000000, 0.0000000, -198.0670893, -696.8994863, 555.8064753, 0.0000000, 0.0000000, 0.0000000, 0.0000000, 0.0000000, 0.0000000, 0.0000000, 0.0000000, 0.0000000, 0.0000000, 0.0000000, 0.0000000
-92.7302797, -92.6582165, -96.6049116, -80.7368719, 90.0000000, -2.7302797, 0.0000000, 2.8192363, 0.2500000, 72.0000000, 0.1000000, -197.4515312, -699.6505916, 555.8309965, 0.6056614, -2.3614286, 2.5000000, -0.1385714, 0.0000000, 0.6056614, 6.0566142, -23.6142863, 25.0000000, -1.3857137, 0.0000000, 6.0566142
-92.5601679, -93.3214694, -95.9027383, -80.7757923, 90.0000000, -2.5601679, 0.0000000, 7.9191091, 0.9521733, 72.0000000, 0.1000000, -195.6925627, -707.3718700, 555.8442971, 1.7011172, -6.6325287, 7.0217332, -0.3892045, 0.0000000, 1.7011172, 10.9545574, -42.7110011, 45.2173322, -2.5063311, 0.0000000, 10.9545574
-92.4533968, -93.7377621, -95.4620170, -80.8002209, 90.0000000, -2.4533968, 0.0000000, 4.9710538, 1.3928946, 72.0000000, 0.1000000, -194.5659008, -712.2134490, 555.8107957, 1.0677114, -4.1629269, 4.4072123, -0.2442854, 0.0000000, 1.0677114, -6.3340577, 24.6960180, -26.1452090, 1.4491910, 0.0000000, -6.3340577
-92.4445845, -93.7721205, -95.4256425, -80.8022371, 90.0000000, -2.4445845, 0.0000000, 0.4103030, 1.4292691, 72.0000000, 0.0381442, -194.4721328, -712.6128716, 555.8065893, 0.2310250, -0.9007492, 0.9536062, -0.0528570, 0.0000000, 0.2310250, -21.9347996, 85.5221453, -90.5406840, 5.0185387, 0.0000000, -21.9347996
-92.4445845, -93.7721205, -95.4256425, -80.8022371, 90.0000000, -2.4445845, 0.0000000, 0.0000000, 0.0000000, 72.0000000, 0.0000000, -194.4721328, -712.6128716, 555.8065893, 0.0000000, 0.0000000, 0.0000000, 0.0000000, 0.0000000, 0.0000000, 0.0000000, 0.0000000, 0.0000000, 0.0000000, 0.0000000, 0.0000000
-92.3880037, -94.0027008, -95.1756425, -80.8216568, 90.0000000, -2.3880037, 0.0000000, 2.7469763, 0.2500000, 73.0000000, 0.1000000, -193.8721091, -715.2934071, 555.8306732, 0.5658079, -2.3058028, 2.5000000, -0.1941972, 0.0000000, 0.5658079, 5.6580787, -23.0580280, 25.0000000, -1.9419720, 0.0000000, 5.6580787
-92.2275795, -94.6564680, -94.4668142, -80.8767178, 90.0000000, -2.2275795, 0.0000000, 7.7876202, 0.9588282, 73.0000000, 0.1000000, -192.1429356, -722.8866130, 555.8452032, 1.6042423, -6.5376723, 7.0882822, -0.5506098, 0.0000000, 1.6042423, 10.3843445, -42.3186953, 45.8828215, -3.5641262, 0.0000000, 10.3843445
-92.1227819, -95.0835435, -94.0037699, -80.9126865, 90.0000000, -2.1227819, 0.0000000, 5.0865970, 1.4218725, 73.0000000, 0.1000000, -190.9910675, -727.8409599, 555.8118017, 1.0479764, -4.2707554, 4.6304431, -0.3596876, 0.0000000, 1.0479764, -5.5626588, 22.6691689, -24.5783908, 1.9092219, 0.0000000, -5.5626588
-92.1125095, -95.1254057, -93.9583821, -80.9162122, 90.0000000, -2.1125095, 0.0000000, 0.4985622, 1.4672604, 73.0000000, 0.0426089, -190.8772136, -728.3263212, 555.8067045, 0.2410843, -0.9824763, 1.0652215, -0.0827452, 0.0000000, 0.2410843, -18.9371912, 77.1735975, -83.6732412, 6.4996437, 0.0000000, -18.9371912
-92.1125095, -95.1254057, -93.9583821, -80.9162122, 90.0000000, -2.1125095, 0.0000000, 0.0000000, 0.0000000, 73.0000000, 0.0000000, -190.8772136, -728.3263212, 555.8067045, 0.0000000, 0.0000000, 0.0000000, 0.0000000, 0.0000000, 0.0000000, 0.0000000, 0.0000000, 0.0000000, 0.0000000, 0.0000000, 0.0000000
-92.0596067, -95.3506803, -93.7083821, -80.9409376, 90.0000000, -2.0596067, 0.0000000, 2.6769881, 0.2500000, 74.0000000, 0.1000000, -190.2922618, -730.9385112, 555.8303606, 0.5290281, -2.2527458, 2.5000000, -0.2472542, 0.0000000, 0.5290281, 5.2902812, -22.5274581, 25.0000000, -2.4725419, 0.0000000, 5.2902812
-91.9082983, -95.9949928, -92.9933519, -81.0116553, 90.0000000, -1.9082983, 0.0000000, 7.6539855, 0.9650302, 74.0000000, 0.1000000, -188.5933137, -738.4015417, 555.8460668, 1.5130843, -6.4431250, 7.1503018, -0.7071768, 0.0000000, 1.5130843, 9.8405616, -41.9037916, 46.5030180, -4.5992265, 0.0000000, 9.8405616
-91.8055528, -96.4325112, -92.5078129, -81.0596759, 90.0000000, -1.8055528, 0.0000000, 5.1953212, 1.4505691, 74.0000000, 0.1000000, -187.4177736, -743.4620126, 555.8128760, 1.0274551, -4.3751835, 4.8553896, -0.4802062, 0.0000000, 1.0274551, -4.8562922, 20.6794150, -22.9491216, 2.2697066, 0.0000000, -4.8562922
-91.7938129, -96.4825028, -92.4523343, -81.0651628, 90.0000000, -1.7938129, 0.0000000, 0.5935198, 1.5060477, 74.0000000, 0.0471078, -187.2823287, -744.0398395, 555.8068269, 0.2492135, -1.0612188, 1.1776948, -0.1164760, 0.0000000, 0.2492135, -16.5204425, 70.3485439, -78.0697756, 7.7212317, 0.0000000, -16.5204425
-91.7938129, -96.4825028, -92.4523343, -81.0651628, 90.0000000, -1.7938129, 0.0000000, 0.0000000, 0.0000000, 74.0000000, 0.0000000, -187.2823287, -744.0398395, 555.8068269, 0.0000000, 0.0000000, 0.0000000, 0.0000000, 0.0000000, 0.0000000, 0.0000000, 0.0000000, 0.0000000, 0.0000000, 0.0000000, 0.0000000
-91.7443118, -96.7027131, -92.2023343, -81.0949526, 90.0000000, -1.7443118, 0.0000000, 2.6089723, 0.2500000, 75.0000000, 0.1000000, -186.7120494, -746.5856159, 555.8300666, 0.4950106, -2.2021026, 2.5000000, -0.2978974, 0.0000000, 0.4950106, 4.9501063, -22.0210258, 25.0000000, -2.9789742, 0.0000000, 4.9501063
-91.6015932, -97.3376106, -91.4815487, -81.1808407, 90.0000000, -1.6015932, 0.0000000, 7.5179579, 0.9707856, 75.0000000, 0.1000000, -185.0438194, -753.9161286, 555.8469009, 1.4271861, -6.3489751, 7.2078557, -0.8588806, 0.0000000, 1.4271861, 9.3217544, -41.4687247, 47.0785569, -5.6098322, 0.0000000, 9.3217544
-91.5009518, -97.7853239, -90.9732694, -81.2414067, 90.0000000, -1.5009518, 0.0000000, 5.2978623, 1.4790649, 75.0000000, 0.1000000, -183.8459958, -759.0766985, 555.8140230, 1.0064148, -4.4771333, 5.0827937, -0.6056604, 0.0000000, 1.0064148, -4.2077130, 18.7184178, -21.2506197, 2.5322019, 0.0000000, -4.2077130
-91.4877432, -97.8440833, -90.9065611, -81.2493556, 90.0000000, -1.4877432, 0.0000000, 0.6950876, 1.5457732, 75.0000000, 0.0516559, -183.6874752, -759.7534320, 555.8069628, 0.2557021, -1.1375153, 1.2913969, -0.1538815, 0.0000000, 0.2557021, -14.5329588, 64.6512708, -73.3972061, 8.7459352, 0.0000000, -14.5329588
-91.4877432, -97.8440833, -90.9065611, -81.2493556, 90.0000000, -1.4877432, 0.0000000, 0.0000000, 0.0000000, 75.0000000, 0.0000000, -183.6874752, -759.7534320, 555.8069628, 0.0000000, 0.0000000, 0.0000000, 0.0000000, 0.0000000, 0.0000000, 0.0000000, 0.0000000, 0.0000000, 0.0000000, 0.0000000, 0.0000000
-91.4413952, -98.0594559, -90.6565611, -81.2839830, 90.0000000, -1.4413952, 0.0000000, 2.5426524, 0.2500000, 76.0000000, 0.1000000, -183.1315273, -762.2344562, 555.8297991, 0.4634801, -2.1537263, 2.5000000, -0.3462737, 0.0000000, 0.4634801, 4.6348009, -21.5372628, 25.0000000, -3.4627372, 0.0000000, 4.6348009
-91.3067830, -98.6849798, -89.9304662, -81.3845540, 90.0000000, -1.3067830, 0.0000000, 7.3792400, 0.9760949, 76.0000000, 0.1000000, -181.4945809, -769.4298206, 555.8477185, 1.3461222, -6.2552390, 7.2609494, -1.0057104, 0.0000000, 1.3461222, 8.8264210, -41.0151271, 47.6094937, -6.5943666, 0.0000000, 8.8264210
-91.2082759, -99.1427283, -89.3991215, -81.4581503, 90.0000000, -1.2082759, 0.0000000, 5.3947748, 1.5074397, 76.0000000, 0.1000000, -180.2757359, -774.6850045, 555.8152492, 0.9850708, -4.5774844, 5.3134473, -0.7359629, 0.0000000, 0.9850708, -3.6105137, 16.7775455, -19.4750206, 2.6974751, 0.0000000, -3.6105137
-91.1936013, -99.2109194, -89.3199666, -81.4691140, 90.0000000, -1.1936013, 0.0000000, 0.8032859, 1.5865945, 76.0000000, 0.0562689, -180.0926503, -775.4671054, 555.8071187, 0.2607954, -1.2118791, 1.4067237, -0.1948446, 0.0000000, 0.2607954, -12.8716727, 59.8128380, -69.4294797, 9.6166417, 0.0000000, -12.8716727
-91.1936013, -99.2109194, -89.3199666, -81.4691140, 90.0000000, -1.1936013, 0.0000000, 0.0000000, 0.0000000, 76.0000000, 0.0000000, -180.0926503, -775.4671054, 555.8071187, 0.0000000, 0.0000000, 0.0000000, 0.0000000, 0.0000000, 0.0000000, 0.0000000, 0.0000000, 0.0000000, 0.0000000, 0.0000000, 0.0000000
-91.1501820, -99.4216672, -89.0699666, -81.5083662, 90.0000000, -1.1501820, 0.0000000, 2.4777710, 0.2500000, 77.0000000, 0.1000000, -179.5507473, -777.8847875, 555.8295659, 0.4341926, -2.1074778, 2.5000000, -0.3925222, 0.0000000, 0.4341926, 4.3419256, -21.0747777, 25.0000000, -3.9252223, 0.0000000, 4.3419256
-91.0232324, -100.0378536, -88.3390142, -81.6231322, 90.0000000, -1.0232324, 0.0000000, 7.2374847, 0.9809524, 77.0000000, 0.1000000, -177.9457329, -784.9420357, 555.8485332, 1.2694964, -6.1618641, 7.3095244, -1.1476603, 0.0000000, 1.2694964, 8.3530388, -40.5438632, 48.0952441, -7.5513809, 0.0000000, 8.3530388
-90.9268728, -100.5055622, -87.7841939, -81.7102440, 90.0000000, -0.9268728, 0.0000000, 5.4865404, 1.5357727, 77.0000000, 0.1000000, -176.7070195, -790.2868176, 555.8165628, 0.9635954, -4.6770858, 5.5482029, -0.8711172, 0.0000000, 0.9635954, -3.0590107, 14.8477834, -17.6132147, 2.7654313, 0.0000000, -3.0590107
-90.9107355, -100.5838890, -87.6912785, -81.7248325, 90.0000000, -0.9107355, 0.0000000, 0.9182391, 1.6286881, 77.0000000, 0.0609641, -176.4978511, -791.1808679, 555.8073015, 0.2647014, -1.2848040, 1.5241015, -0.2392975, 0.0000000, 0.2647014, -11.4640327, 55.6439619, -66.0077684, 10.3638065, 0.0000000, -11.4640327
-90.9107355, -100.5838890, -87.6912785, -81.7248325, 90.0000000, -0.9107355, 0.0000000, 0.0000000, 0.0000000, 77.0000000, 0.0000000, -176.4978511, -791.1808679, 555.8073015, 0.0000000, 0.0000000, 0.0000000, 0.0000000, 0.0000000, 0.0000000, 0.0000000, 0.0000000, 0.0000000, 0.0000000, 0.0000000, 0.0000000
-90.8700424, -100.7902116, -87.4412785, -81.7685100, 90.0000000, -0.8700424, 0.0000000, 2.4140871, 0.2500000, 78.0000000, 0.1000000, -175.9697579, -793.5363820, 555.8293754, 0.4069312, -2.0632251, 2.5000000, -0.4367749, 0.0000000, 0.4069312, 4.0693123, -20.6322515, 25.0000000, -4.3677485, 0.0000000, 4.0693123
-90.7503485, -101.3970845, -86.7059334, -81.8969821, 90.0000000, -0.7503485, 0.0000000, 7.0922924, 0.9853450, 78.0000000, 0.1000000, -174.3974180, -800.4521581, 555.8493588, 1.1969395, -6.0687295, 7.3534504, -1.2847209, 0.0000000, 1.1969395, 7.9000822, -40.0550437, 48.5345040, -8.4794603, 0.0000000, 7.9000822
-90.6561360, -101.8747612, -86.1271348, -81.9981039, 90.0000000, -0.6561360, 0.0000000, 5.5735749, 1.5641436, 78.0000000, 0.1000000, -173.1398960, -805.8819271, 555.8179742, 0.9421249, -4.7767673, 5.7879860, -1.0112187, 0.0000000, 0.9421249, -2.5481455, 12.9196221, -15.6546441, 2.7350219, 0.0000000, -2.5481455
-90.6385389, -101.9639821, -86.0190263, -82.0169916, 90.0000000, -0.6385389, 0.0000000, 1.0401739, 1.6722522, 78.0000000, 0.0657597, -172.9030751, -806.8947293, 555.8075186, 0.2675968, -1.3567711, 1.6439930, -0.2872219, 0.0000000, 0.2675968, -10.2574657, 52.0074634, -63.0171936, 11.0097302, 0.0000000, -10.2574657
-90.6385389, -101.9639821, -86.0190263, -82.0169916, 90.0000000, -0.6385389, 0.0000000, 0.0000000, 0.0000000, 78.0000000, 0.0000000, -172.9030751, -806.8947293, 555.8075186, 0.0000000, 0.0000000, 0.0000000, 0.0000000, 0.0000000, 0.0000000, 0.0000000, 0.0000000, 0.0000000, 0.0000000, 0.0000000, 0.0000000
-90.6003886, -102.1660664, -85.7690263, -82.0649073, 90.0000000, -0.6003886, 0.0000000, 2.3513726, 0.2500000, 79.0000000, 0.1000000, -172.3886051, -809.1890270, 555.8292365, 0.3815029, -2.0208431, 2.5000000, -0.4791569, 0.0000000, 0.3815029, 3.8150295, -20.2084314, 25.0000000, -4.7915686, 0.0000000, 3.8150295
-90.4875780, -102.7636309, -85.0297749, -82.2065942, 90.0000000, -0.4875780, 0.0000000, 6.9432081, 0.9892514, 79.0000000, 0.1000000, -170.8497881, -815.9595321, 555.8502097, 1.1281064, -5.9756447, 7.3925143, -1.4168696, 0.0000000, 1.1281064, 7.4660345, -39.5480158, 48.9251430, -9.3771272, 0.0000000, 7.4660345
-90.3955013, -103.2513662, -84.4263939, -82.3222399, 90.0000000, -0.3955013, 0.0000000, 5.6562341, 1.5926324, 79.0000000, 0.1000000, -169.5744383, -821.4700243, 555.8194961, 0.9207665, -4.8773532, 6.0338097, -1.1564565, 0.0000000, 0.9207665, -2.0733992, 10.9829155, -13.5870460, 2.6041305, 0.0000000, -2.0733992
-90.3764448, -103.3523099, -84.3015158, -82.3461744, 90.0000000, -0.3764448, 0.0000000, 1.1694194, 1.7175105, 79.0000000, 0.0706762, -169.3083196, -822.6087013, 555.8077780, 0.2696318, -1.4282550, 1.7669049, -0.3386498, 0.0000000, 0.2696318, -9.2129283, 48.8014133, -60.3725895, 11.5711762, 0.0000000, -9.2129283
-90.3764448, -103.3523099, -84.3015158, -82.3461744, 90.0000000, -0.3764448, 0.0000000, 0.0000000, 0.0000000, 79.0000000, 0.0000000, -169.3083196, -822.6087013, 555.8077780, 0.0000000, 0.0000000, 0.0000000, 0.0000000, 0.0000000, 0.0000000, 0.0000000, 0.0000000, 0.0000000, 0.0000000, 0.0000000, 0.0000000
-90.3406713, -103.5503311, -84.0515158, -82.3981531, 90.0000000, -0.3406713, 0.0000000, 2.2894102, 0.2500000, 80.0000000, 0.1000000, -168.8073327, -824.8425218, 555.8291587, 0.3577350, -1.9802126, 2.5000000, -0.5197874, 0.0000000, 0.3577350, 3.5773504, -19.8021262, 25.0000000, -5.1978738, 0.0000000, 3.5773504
-90.2344038, -104.1385657, -83.3088751, -82.5525592, 90.0000000, -0.2344038, 0.0000000, 6.7897154, 0.9926406, 80.0000000, 0.1000000, -167.3030062, -831.4634549, 555.8511009, 1.0626743, -5.8823455, 7.4264065, -1.5440610, 0.0000000, 1.0626743, 7.0493929, -39.0213292, 49.2640650, -10.2427358, 0.0000000, 7.0493929
-90.1444436, -104.6365332, -82.6801958, -82.6832710, 90.0000000, -0.1444436, 0.0000000, 5.7348182, 1.6213200, 80.0000000, 0.1000000, -166.0107435, -837.0506994, 555.8211439, 0.8996025, -4.9796751, 6.2867935, -1.3071184, 0.0000000, 0.8996025, -1.6307180, 9.0267042, -11.3961300, 2.3694258, 0.0000000, -1.6307180
-90.1239242, -104.7501166, -82.5367977, -82.7130856, 90.0000000, -0.1239242, 0.0000000, 1.3064113, 1.7647180, 80.0000000, 0.0757359, -165.7135818, -838.3227980, 555.8080888, 0.2709337, -1.4997313, 1.8933967, -0.3936655, 0.0000000, 0.2709337, -8.3008063, 45.9484241, -58.0094578, 12.0610337, 0.0000000, -8.3008063
-90.0892842, -104.9461756, -82.2867977, -82.7670267, 90.0000000, -0.0892842, 0.0000000, 2.2516514, 0.2500000, 80.0000000, 0.1000000, -165.2099817, -840.5174071, 555.8046406, 0.3463993, -1.9605897, 2.5000000, -0.5394103, 0.0000000, 0.3463993, 0.7546552, -4.6085841, 6.0660325, -1.4574485, 0.0000000, 0.7546552
-90.0157740, -105.3622372, -81.7562665, -82.8814963, 90.0000000, -0.0157740, 0.0000000, 4.7716996, 0.7805312, 80.0000000, 0.1000000, -164.1326873, -845.1658100, 555.7745794, 0.7351025, -4.1606162, 5.3053123, -1.1446961, 0.0000000, 0.7351025, 3.8870324, -22.0002651, 28.0531229, -6.0528579, 0.0000000, 3.8870324
-89.9999934, -105.4515541, -81.6423762, -82.9060697, 90.0000000, 0.0000066, 0.0000000, 1.0231867, 0.8944215, 80.0000000, 0.0674953, -163.8999023, -846.1621094, 555.7640991, 0.2338031, -1.3233054, 1.6873819, -0.3640765, 0.0000000, 0.2338031, -7.4271769, 42.0371748, -53.6027192, 11.5655445, 0.0000000, -7.4271769
-89.9999934, -105.4515541, -81.6423762, -82.9060697, 90.0000000, 0.0000066, 0.0000000, 0.0000000, 0.0000000, 81.0000000, 0.0000000, -163.8999023, -846.1621094, 555.7640991, 0.0000000, 0.0000000, 0.0000000, 0.0000000, 0.0000000, 0.0000000, 0.0000000, 0.0000000, 0.0000000, 0.0000000, 0.0000000, 0.0000000
-89.9999935, -105.2050491, -81.8132404, -82.9817105, 90.0000000, 0.0000065, 0.0000000, 2.8443805, 0.2465050, 82.0000000, 0.1000000, -163.8999039, -843.7125473, 557.2098329, -0.0000008, 2.4650497, -1.7086416, -0.7564081, 0.0000000, -0.0000008, -0.0000084, 24.6504968, -17.0864161, -7.5640807, 0.0000000, -0.0000084
-89.9999935, -105.0316657, -81.9334206, -83.0349138, 90.0000000, 0.0000065, 0.0000000, 1.9994071, 0.4198884, 82.0000000, 0.0832787, -163.8999049, -841.9872292, 558.2202321, -0.0000007, 2.0819670, -1.4431090, -0.6388580, 0.0000000, -0.0000007, 0.0000016, -4.6000095, 3.1884825, 1.4115271, 0.0000000, 0.0000016
-89.9999935, -105.0302532, -81.9343996, -83.0353472, 90.0000000, 0.0000065, 0.0000000, 0.0162841, 0.0014125, 82.0000000, 0.0106301, -163.8999049, -841.9731658, 558.2284414, -0.0000000, 0.1328759, -0.0921026, -0.0407734, 0.0000000, -0.0000000, 0.0000623, -183.3562715, 127.0928361, 56.2634355, 0.0000000, 0.0000623
-89.9999936, -104.7802532, -82.1055499, -83.1141969, 90.0000000, 0.0000064, 0.0000000, 2.8896000, 0.2500000, 83.0000000, 0.1000000, -163.8999065, -839.4845599, 559.6969880, -0.0000009, 2.5000000, -1.7115030, -0.7884970, 0.0000000, -0.0000009, -0.0000081, 23.6712406, -16.1940047, -7.4772359, 0.0000000, -0.0000081
-89.9999938, -104.2796164, -82.4482865, -83.2720971, 90.0000000, 0.0000062, 0.0000000, 5.7800697, 0.7506368, 83.0000000, 0.1000000, -163.8999095, -834.4888810, 562.6042887, -0.0000017, 5.0063678, -3.4273654, -1.5790024, 0.0000000, -0.0000017, -0.0000086, 25.0636777, -17.1586240, -7.9050537, 0.0000000, -0.0000086
-89.9999938, -104.1933013, -82.5073779, -83.2993208, 90.0000000, 0.0000062, 0.0000000, 0.9956736, 0.8369519, 83.0000000, 0.0587589, -163.8999101, -833.6259599, 563.1010112, -0.0000005, 1.4689717, -1.0056598, -0.4633119, 0.0000000, -0.0000005, 0.0000207, -60.2019122, 41.2143017, 18.9876104, 0.0000000, 0.0000207
-89.9999938, -104.1918968, -82.5083274, -83.2997758, 90.0000000, 0.0000062, 0.0000000, 0.0162464, 0.0014045, 83.0000000, 0.0105999, -163.8999101, -833.6119291, 563.1092014, -0.0000000, 0.1324984, -0.0895762, -0.0429221, 0.0000000, -0.0000000, 0.0000433, -126.0839536, 86.4240483, 39.6599053, 0.0000000, 0.0000433
-89.9999939, -103.9418968, -82.6752065, -83.3828966, 90.0000000, 0.0000061, 0.0000000, 2.8993829, 0.2500000, 84.0000000, 0.1000000, -163.8999116, -831.1148451, 564.5826303, -0.0000009, 2.5000000, -1.6687913, -0.8312087, 0.0000000, -0.0000009, -0.0000083, 23.6750165, -15.7921507, -7.8828657, 0.0000000, -0.0000083
-89.9999941, -103.4427969, -83.0083640, -83.5488391, 90.0000000, 0.0000059, 0.0000000, 5.7817036, 0.7490999, 84.0000000, 0.1000000, -163.8999147, -826.1177359, 567.4907220, -0.0000018, 4.9909990, -3.3315743, -1.6594247, 0.0000000, -0.0000018, -0.0000088, 24.9099899, -16.6278299, -8.2821600, 0.0000000, -0.0000088
-89.9999941, -103.3577539, -83.0651316, -83.5771145, 90.0000000, 0.0000059, 0.0000000, 0.9842840, 0.8341430, 84.0000000, 0.0583243, -163.8999152, -825.2647006, 567.9817879, -0.0000005, 1.4581071, -0.9733106, -0.4847965, 0.0000000, -0.0000005, 0.0000213, -60.5732556, 40.4336491, 20.1396065, 0.0000000, 0.0000213
-89.9999941, -103.3563523, -83.0660552, -83.5775925, 90.0000000, 0.0000059, 0.0000000, 0.0162676, 0.0014016, 84.0000000, 0.0105890, -163.8999152, -825.2506515, 567.9899889, -0.0000000, 0.1323622, -0.0872237, -0.0451385, 0.0000000, -0.0000000, 0.0000440, -125.2004686, 83.6801188, 41.5203498, 0.0000000, 0.0000440
-89.9999942, -103.1063523, -83.2286660, -83.6649817, 90.0000000, 0.0000058, 0.0000000, 2.9091857, 0.2500000, 85.0000000, 0.1000000, -163.8999168, -822.7450731, 569.4683118, -0.0000009, 2.5000000, -1.6261076, -0.8738924, 0.0000000, -0.0000009, -0.0000085, 23.6763778, -15.3888383, -8.2875395, 0.0000000, -0.0000085
-89.9999944, -102.6087934, -83.5522997, -83.8389069, 90.0000000, 0.0000056, 0.0000000, 5.7832294, 0.7475589, 85.0000000, 0.1000000, -163.8999198, -817.7466270, 572.3771395, -0.0000018, 4.9755888, -3.2363370, -1.7392518, 0.0000000, -0.0000018, -0.0000089, 24.7558877, -16.1022945, -8.6535932, 0.0000000, -0.0000089
-89.9999944, -102.5250125, -83.6067944, -83.8681931, 90.0000000, 0.0000056, 0.0000000, 0.9729239, 0.8313398, 85.0000000, 0.0578899, -163.8999203, -816.9034511, 572.8625623, -0.0000005, 1.4472467, -0.9413515, -0.5058952, 0.0000000, -0.0000005, 0.0000220, -60.9492172, 39.6439931, 21.3052240, 0.0000000, 0.0000220
-89.9999944, -102.5236088, -83.6076954, -83.8686958, 90.0000000, 0.0000056, 0.0000000, 0.0163469, 0.0014037, 85.0000000, 0.0105969, -163.8999204, -816.8893335, 572.8708032, -0.0000000, 0.1324612, -0.0850280, -0.0474332, 0.0000000, -0.0000000, 0.0000447, -124.0727051, 80.8089073, 43.2637978, 0.0000000, 0.0000447
-89.9999945, -102.2736088, -83.7660394, -83.9603518, 90.0000000, 0.0000055, 0.0000000, 2.9190439, 0.2500000, 86.0000000, 0.1000000, -163.8999219, -814.3752139, 574.3540497, -0.0000009, 2.5000000, -1.5834399, -0.9165601, 0.0000000, -0.0000009, -0.0000087, 23.6753881, -14.9841196, -8.6912685, 0.0000000, -0.0000087
-89.9999947, -101.7776006, -84.0801991, -84.1422003, 90.0000000, 0.0000053, 0.0000000, 5.7846519, 0.7460082, 86.0000000, 0.1000000, -163.8999250, -809.3755197, 577.2635610, -0.0000018, 4.9600820, -3.1415968, -1.8184853, 0.0000000, -0.0000018, -0.0000091, 24.6008203, -15.5815684, -9.0192519, 0.0000000, -0.0000091
-89.9999947, -101.6950764, -84.1324680, -84.1724557, 90.0000000, 0.0000053, 0.0000000, 0.9615537, 0.8285324, 86.0000000, 0.0574541, -163.8999255, -808.5422112, 577.7433342, -0.0000005, 1.4363516, -0.9097506, -0.5266010, 0.0000000, -0.0000005, 0.0000226, -61.3312646, 38.8457491, 22.4855155, 0.0000000, 0.0000226
-89.9999947, -101.6936658, -84.1333494, -84.1729849, 90.0000000, 0.0000053, 0.0000000, 0.0164833, 0.0014106, 86.0000000, 0.0106231, -163.8999255, -808.5279757, 577.7516440, -0.0000000, 0.1327882, -0.0829718, -0.0498163, 0.0000000, -0.0000000, 0.0000453, -122.7108184, 77.8287399, 44.8820785, 0.0000000, 0.0000453
-89.9999948, -101.4436658, -84.2874270, -84.2689072, 90.0000000, 0.0000052, 0.0000000, 2.9289931, 0.2500000, 87.0000000, 0.1000000, -163.8999271, -806.0052374, 579.2398615, -0.0000009, 2.5000000, -1.5407762, -0.9592238, 0.0000000, -0.0000009, -0.0000090, 23.6721185, -14.5780437, -9.0940747, 0.0000000, -0.0000090
-89.9999950, -100.9492233, -84.5921570, -84.4586196, 90.0000000, 0.0000050, 0.0000000, 5.7859751, 0.7444424, 87.0000000, 0.1000000, -163.8999301, -801.0043805, 582.1500055, -0.0000019, 4.9444242, -3.0473004, -1.8971238, 0.0000000, -0.0000019, -0.0000092, 24.4442419, -15.0652423, -9.3789996, 0.0000000, -0.0000092
-89.9999950, -100.8679546, -84.6422438, -84.4898016, 90.0000000, 0.0000050, 0.0000000, 0.9501349, 0.8257112, 87.0000000, 0.0570154, -163.8999306, -800.1809807, 582.6241037, -0.0000005, 1.4253841, -0.8784791, -0.5469049, 0.0000000, -0.0000005, 0.0000233, -61.7209107, 38.0392437, 23.6816671, 0.0000000, 0.0000233
-89.9999950, -100.8665323, -84.6431083, -84.4903595, 90.0000000, 0.0000050, 0.0000000, 0.0166762, 0.0014223, 87.0000000, 0.0106668, -163.8999306, -800.1665786, 582.6325107, -0.0000001, 0.1333352, -0.0810382, -0.0522971, 0.0000000, -0.0000001, 0.0000458, -121.1278592, 74.7590304, 46.3688288, 0.0000000, 0.0000458
-89.9999951, -100.6165323, -84.7929186, -84.5905491, 90.0000000, 0.0000049, 0.0000000, 2.9390685, 0.2500000, 88.0000000, 0.1000000, -163.8999322, -797.6351133, 584.1257646, -0.0000010, 2.5000000, -1.4981037, -1.0018963, 0.0000000, -0.0000010, -0.0000092, 23.6666477, -14.1706556, -9.4959922, 0.0000000, -0.0000092
-89.9999953, -100.1236762, -85.0882585, -84.7880654, 90.0000000, 0.0000047, 0.0000000, 5.7872013, 0.7428561, 88.0000000, 0.1000000, -163.8999353, -792.6331769, 587.0364916, -0.0000019, 4.9285611, -2.9533983, -1.9751629, 0.0000000, -0.0000019, -0.0000094, 24.2856113, -14.5529457, -9.7326656, 0.0000000, -0.0000094
-89.9999954, -100.0436656, -85.1362041, -84.8201303, 90.0000000, 0.0000046, 0.0000000, 0.9386305, 0.8228667, 88.0000000, 0.0565723, -163.8999358, -791.8197593, 587.5048707, -0.0000005, 1.4143070, -0.8475114, -0.5667956, 0.0000000, -0.0000005, 0.0000241, -62.1197193, 37.2247127, 24.8950066, 0.0000000, 0.0000241
-89.9999954, -100.0422271, -85.1370538, -84.8207191, 90.0000000, 0.0000046, 0.0000000, 0.0169248, 0.0014385, 88.0000000, 0.0107275, -163.8999358, -791.8051426, 587.5134030, -0.0000001, 0.1340939, -0.0792100, -0.0548839, 0.0000000, -0.0000001, 0.0000462, -119.3392760, 71.6197449, 47.7195312, 0.0000000, 0.0000462
-89.9999955, -99.7922271, -85.2825948, -84.9251781, 90.0000000, 0.0000045, 0.0000000, 2.9493058, 0.2500000, 89.0000000, 0.1000000, -163.8999373, -789.2648116, 589.0117766, -0.0000010, 2.5000000, -1.4554094, -1.0445906, 0.0000000, -0.0000010, -0.0000094, 23.6590614, -13.7619939, -9.8970675, 0.0000000, -0.0000094
-89.9999956, -99.3009832, -85.5685792, -85.1304376, 90.0000000, 0.0000044, 0.0000000, 5.7883318, 0.7412439, 89.0000000, 0.1000000, -163.8999404, -784.2618777, 591.9230371, -0.0000020, 4.9124391, -2.8598439, -2.0525951, 0.0000000, -0.0000020, -0.0000096, 24.1243908, -14.0443458, -10.0800450, 0.0000000, -0.0000096
-89.9999957, -99.2222374, -85.6144221, -85.1633405, 90.0000000, 0.0000043, 0.0000000, 0.9270045, 0.8199897, 89.0000000, 0.0561234, -163.8999409, -783.4585470, 592.3856353, -0.0000006, 1.4030840, -0.8168246, -0.5862594, 0.0000000, -0.0000006, 0.0000248, -62.5293109, 36.4022980, 26.1270129, 0.0000000, 0.0000248
-89.9999957, -99.2207782, -85.6152591, -85.1639626, 90.0000000, 0.0000043, 0.0000000, 0.0172285, 0.0014592, 89.0000000, 0.0108044, -163.8999409, -783.4436680, 592.3943206, -0.0000001, 0.1350549, -0.0774705, -0.0575844, 0.0000000, -0.0000001, 0.0000466, -117.3623586, 68.4308821, 48.9314765, 0.0000000, 0.0000466
-89.9999958, -98.9707782, -85.7565271, -85.2726947, 90.0000000, 0.0000042, 0.0000000, 2.9597406, 0.2500000, 90.0000000, 0.1000000, -163.8999425, -780.8943018, 593.8979151, -0.0000010, 2.5000000, -1.4126795, -1.0873205, 0.0000000, -0.0000010, -0.0000096, 23.6494508, -13.3520902, -10.2973606, 0.0000000, -0.0000096
-89.9999960, -98.4811778, -86.0331865, -85.4856357, 90.0000000, 0.0000040, 0.0000000, 5.7893664, 0.7396005, 90.0000000, 0.1000000, -163.8999456, -775.8904524, 596.8096594, -0.0000020, 4.8960046, -2.7665941, -2.1294105, 0.0000000, -0.0000020, -0.0000098, 23.9600457, -13.5391461, -10.4208996, 0.0000000, -0.0000098
-89.9999960, -98.4037069, -86.0769631, -85.5193300, 90.0000000, 0.0000040, 0.0000000, 0.9152219, 0.8170713, 90.0000000, 0.0556672, -163.8999460, -775.0973436, 597.2663973, -0.0000006, 1.3916795, -0.7863988, -0.6052806, 0.0000000, -0.0000006, 0.0000256, -62.9513697, 35.5720437, 27.3793260, 0.0000000, 0.0000256
-89.9999960, -98.4022227, -86.0777891, -85.5199882, 90.0000000, 0.0000040, 0.0000000, 0.0175867, 0.0014842, 90.0000000, 0.0108967, -163.8999461, -775.0821552, 597.2752633, -0.0000001, 0.1362088, -0.0758031, -0.0604057, 0.0000000, -0.0000001, 0.0000469, -115.2156586, 65.2119973, 50.0036614, 0.0000000, 0.0000469
-89.9999961, -98.1522227, -86.2147791, -85.6329982, 90.0000000, 0.0000039, 0.0000000, 2.9704085, 0.2500000, 91.0000000, 0.1000000, -163.8999476, -772.5235534, 598.7841978, -0.0000010, 2.5000000, -1.3698998, -1.1301002, 0.0000000, -0.0000010, -0.0000099, 23.6379123, -12.9409669, -10.6969454, 0.0000000, -0.0000099
-89.9999963, -97.6643022, -86.4821399, -85.8535578, 90.0000000, 0.0000037, 0.0000000, 5.7903037, 0.7379204, 91.0000000, 0.1000000, -163.8999507, -767.5188717, 601.6963753, -0.0000020, 4.8792044, -2.6736085, -2.2055959, 0.0000000, -0.0000020, -0.0000099, 23.7920438, -13.0370865, -10.7549573, 0.0000000, -0.0000099
-89.9999964, -97.5881198, -86.5238848, -85.8879954, 90.0000000, 0.0000036, 0.0000000, 0.9032491, 0.8141029, 91.0000000, 0.0552023, -163.8999512, -766.7361489, 602.1471568, -0.0000006, 1.3800583, -0.7562166, -0.6238417, 0.0000000, -0.0000006, 0.0000265, -63.3876512, 34.7338924, 28.6537588, 0.0000000, 0.0000265
-89.9999964, -97.5866063, -86.5247012, -85.8886925, 90.0000000, 0.0000036, 0.0000000, 0.0179990, 0.0015135, 91.0000000, 0.0110036, -163.8999512, -766.7206045, 602.1562306, -0.0000001, 0.1375454, -0.0741918, -0.0633537, 0.0000000, -0.0000001, 0.0000471, -112.9184212, 61.9817899, 50.9366313, 0.0000000, 0.0000471
-89.9999965, -97.3366063, -86.6574068, -86.0059869, 90.0000000, 0.0000035, 0.0000000, 2.9813455, 0.2500000, 92.0000000, 0.1000000, -163.8999528, -764.1525357, 603.6706428, -0.0000011, 2.5000000, -1.3270554, -1.1729446, 0.0000000, -0.0000011, -0.0000101, 23.6245459, -12.5286359, -11.0959099, 0.0000000, -0.0000101
-89.9999967, -96.8504078, -86.9154917, -86.2341005, 90.0000000, 0.0000033, 0.0000000, 5.7911406, 0.7361986, 92.0000000, 0.1000000, -163.8999559, -759.1471074, 606.5832012, -0.0000021, 4.8619855, -2.5808496, -2.2811360, 0.0000000, -0.0000021, -0.0000101, 23.6198550, -12.5379420, -11.0819130, 0.0000000, -0.0000101
-89.9999967, -96.7755304, -86.9552383, -86.2692313, 90.0000000, 0.0000033, 0.0000000, 0.8910537, 0.8110759, 92.0000000, 0.0547274, -163.8999563, -758.3749628, 607.0279140, -0.0000006, 1.3681861, -0.7262635, -0.6419226, 0.0000000, -0.0000006, 0.0000274, -63.8399912, 33.8876808, 29.9523104, 0.0000000, 0.0000274
-89.9999967, -96.7739835, -86.9560461, -86.2699703, 90.0000000, 0.0000033, 0.0000000, 0.0184648, 0.0015469, 92.0000000, 0.0111244, -163.8999563, -758.3590161, 607.0372226, -0.0000001, 0.1390545, -0.0726207, -0.0664339, 0.0000000, -0.0000001, 0.0000473, -110.4900566, 58.7577700, 51.7322866, 0.0000000, 0.0000473
-89.9999968, -96.5239835, -87.0844592, -86.3915573, 90.0000000, 0.0000032, 0.0000000, 2.9925879, 0.2500000, 93.0000000, 0.1000000, -163.8999579, -755.7812178, 608.5572680, -0.0000011, 2.5000000, -1.2841305, -1.2158695, 0.0000000, -0.0000011, -0.0000104, 23.6094546, -12.1150978, -11.4943568, 0.0000000, -0.0000104
-89.9999970, -96.0395540, -87.3332874, -86.6271585, 90.0000000, 0.0000030, 0.0000000, 5.7918728, 0.7344295, 93.0000000, 0.1000000, -163.8999610, -750.7751320, 611.4701525, -0.0000021, 4.8442950, -2.4882827, -2.3560123, 0.0000000, -0.0000021, -0.0000103, 23.4429504, -12.0415226, -11.4014277, 0.0000000, -0.0000103
-89.9999971, -95.9660015, -87.3710679, -86.6629307, 90.0000000, 0.0000029, 0.0000000, 0.8786042, 0.8079821, 93.0000000, 0.0542412, -163.8999615, -750.0137852, 611.9086687, -0.0000006, 1.3560290, -0.6965272, -0.6595017, 0.0000000, -0.0000006, 0.0000283, -64.3103156, 33.0331340, 31.2771816, 0.0000000, 0.0000283
-89.9999971, -95.9644172, -87.3718680, -86.6637148, 90.0000000, 0.0000029, 0.0000000, 0.0189837, 0.0015843, 93.0000000, 0.0112581, -163.8999615, -749.9973904, 611.9182389, -0.0000001, 0.1407257, -0.0710747, -0.0696510, 0.0000000, -0.0000001, 0.0000474, -107.9496717, 55.5560073, 52.3936644, 0.0000000, 0.0000474
